; generated by PrusaSlicer 2.1.1+win64 on 2020-03-25 at 10:53:55 UTC

; 

; external perimeters extrusion width = 0.45mm
; perimeters extrusion width = 0.45mm
; infill extrusion width = 0.45mm
; solid infill extrusion width = 0.45mm
; top infill extrusion width = 0.40mm
; first layer extrusion width = 0.42mm

M73 P0 R83
M73 Q0 S84
M201 X1000 Y1000 Z1000 E5000 ; sets maximum accelerations, mm/sec^2
M203 X200 Y200 Z12 E120 ; sets maximum feedrates, mm/sec
M204 P1250 R1250 T1250 ; sets acceleration (P, T) and retract acceleration (R), mm/sec^2
M205 X8.00 Y8.00 Z0.40 E4.50 ; sets the jerk limits, mm/sec
M205 S0 T0 ; sets the minimum extruding and travel feed rate, mm/sec
M107
M862.3 P "MK3" ; printer model check
M862.1 P0.4 ; nozzle diameter check
M115 U3.8.1 ; tell printer latest fw version
G90 ; use absolute coordinates
M83 ; extruder relative mode
M104 S240 ; set extruder temp
M140 S85 ; set bed temp
M190 S85 ; wait for bed temp
M109 S240 ; wait for extruder temp
G28 W ; home all without mesh bed level
G80 ; mesh bed leveling
G1 Y-3.0 F1000.0 ; go outside print area
G92 E0.0
G1 X60.0 E9.0 F1000.0 ; intro line
M73 Q0 S84
M73 P0 R83
G1 X100.0 E12.5 F1000.0 ; intro line
G92 E0.0
M221 S95
G21 ; set units to millimeters
G90 ; use absolute coordinates
M83 ; use relative distances for extrusion
M900 K45 ; Filament gcode
;BEFORE_LAYER_CHANGE
G92 E0.0
;0.2


G1 E-1.40000 F2100.00000
G1 Z0.200 F10800.000
;AFTER_LAYER_CHANGE
;0.2
G1 Z0.400
G1 X56.566 Y33.968
G1 Z0.200
G1 E1.40000 F2100.00000
M204 S1000
G1 F1200
G1 X56.862 Y33.432 E0.01919
G1 X57.209 Y33.067 E0.01578
G1 X57.627 Y32.793 E0.01567
G1 X58.096 Y32.621 E0.01567
G1 X58.595 Y32.560 E0.01578
G1 X191.637 Y32.570 E4.17143
G1 X192.429 Y32.801 E0.02586
G1 X192.866 Y33.098 E0.01658
G1 X193.220 Y33.491 E0.01658
G1 X193.469 Y33.957 E0.01658
G1 X193.600 Y34.469 E0.01658
G1 X199.377 Y106.411 E2.26295
G1 X199.262 Y106.901 E0.01578
G1 X198.040 Y110.139 E0.10851
G1 X196.172 Y114.541 E0.14995
G1 X193.594 Y120.197 E0.19489
G1 X190.819 Y125.784 E0.19560
G1 X188.601 Y129.934 E0.14751
G1 X186.292 Y133.945 E0.14514
G1 X183.603 Y138.299 E0.16044
G1 X180.269 Y143.164 E0.18492
G1 X176.671 Y148.093 E0.19135
G1 X175.217 Y149.956 E0.07409
G1 X172.533 Y153.149 E0.13077
G1 X169.856 Y156.076 E0.12438
G1 X166.389 Y159.556 E0.15403
G1 X163.636 Y162.082 E0.11714
G1 X160.827 Y164.423 E0.11464
G1 X158.028 Y166.571 E0.11063
G1 X155.150 Y168.549 E0.10948
G1 X152.259 Y170.356 E0.10692
G1 X149.320 Y171.968 E0.10511
G1 X146.353 Y173.416 E0.10350
G1 X143.392 Y174.644 E0.10051
G1 X139.463 Y175.993 E0.13023
G1 X130.243 Y178.936 E0.30348
G1 X128.569 Y179.353 E0.05410
G1 X126.787 Y179.605 E0.05640
G1 X124.963 Y179.689 E0.05726
G1 X123.138 Y179.605 E0.05730
G1 X121.346 Y179.351 E0.05675
G1 X119.695 Y178.940 E0.05333
G1 X107.613 Y175.082 E0.39767
G1 X103.607 Y173.459 E0.13551
G1 X101.603 Y172.516 E0.06945
G1 X97.917 Y170.535 E0.13122
G1 X94.696 Y168.539 E0.11879
G1 X90.071 Y165.249 E0.17797
G1 X87.148 Y162.867 E0.11823
G1 X83.062 Y159.158 E0.17303
G1 X79.897 Y155.961 E0.14105
G1 X76.477 Y152.153 E0.16050
G1 X72.750 Y147.508 E0.18673
G1 X69.400 Y143.002 E0.17603
G1 X67.601 Y140.371 E0.09996
G1 X64.860 Y136.069 E0.15992
G1 X60.050 Y127.705 E0.30254
G1 X57.794 Y123.329 E0.15434
G1 X55.142 Y117.787 E0.19264
G1 X53.396 Y113.807 E0.13626
G1 X50.725 Y106.736 E0.23700
G1 X50.657 Y105.961 E0.02442
G1 X56.430 Y34.564 E2.24588
G1 X56.553 Y34.026 E0.01731
G1 F8640
G1 X56.862 Y33.432 E-0.15467
G1 X57.209 Y33.067 E-0.11620
G1 X57.627 Y32.793 E-0.11536
G1 X58.096 Y32.621 E-0.11536
G1 X58.595 Y32.560 E-0.11620
G1 X61.680 Y32.560 E-0.71220
G1 E-0.07000 F2100.00000
G1 Z0.400 F10800.000
G1 X59.081 Y110.177
G1 Z0.200
G1 E1.40000 F2100.00000
G1 F1200
G1 X62.584 Y117.513 E0.25490
G1 X62.124 Y117.739 E0.01607
G1 X61.123 Y115.751 E0.06977
G1 X58.615 Y110.397 E0.18538
G1 X59.027 Y110.202 E0.01430
G1 X59.318 Y109.854 F10800.000
G1 F8640
G1 X61.547 Y115.382 E-1.33000
G1 E-0.07000 F2100.00000
G1 Z0.400 F10800.000
G1 X61.189 Y77.632
G1 Z0.200
G1 E1.40000 F2100.00000
G1 F1200
G1 X61.824 Y77.785 E0.02050
G1 X62.309 Y78.209 E0.02018
G1 X62.541 Y78.716 E0.01748
G1 X63.581 Y82.423 E0.12072
G1 X64.739 Y86.027 E0.11870
G1 X66.513 Y90.693 E0.15650
G1 X67.476 Y92.933 E0.07646
G1 X68.497 Y95.125 E0.07582
G1 X69.598 Y97.318 E0.07693
G1 X70.763 Y99.467 E0.07663
G1 X73.160 Y103.448 E0.14572
G1 X74.486 Y105.434 E0.07485
G1 X75.864 Y107.357 E0.07420
G1 X77.272 Y109.189 E0.07245
G1 X79.451 Y111.780 E0.10615
G1 X81.725 Y114.248 E0.10520
G1 X83.293 Y115.797 E0.06912
G1 X86.502 Y118.642 E0.13447
G1 X90.037 Y121.340 E0.13940
G1 X93.827 Y123.786 E0.14145
G1 X95.842 Y124.939 E0.07278
G1 X100.240 Y127.158 E0.15446
G1 X102.431 Y128.110 E0.07488
G1 X104.623 Y128.966 E0.07379
G1 X107.976 Y130.083 E0.11081
G1 X111.309 Y131.007 E0.10846
G1 X115.850 Y131.922 E0.14524
G1 X119.314 Y132.361 E0.10948
G1 X122.733 Y132.611 E0.10748
G1 X124.937 Y132.656 E0.06912
G1 X127.307 Y132.611 E0.07433
G1 X130.726 Y132.361 E0.10749
G1 X134.138 Y131.930 E0.10782
G1 X138.735 Y131.006 E0.14703
G1 X140.961 Y130.419 E0.07220
G1 X145.338 Y128.993 E0.14434
G1 X147.610 Y128.110 E0.07642
G1 X149.802 Y127.157 E0.07494
G1 X154.049 Y125.024 E0.14900
G1 X156.213 Y123.786 E0.07818
G1 X160.003 Y121.339 E0.14144
G1 X163.468 Y118.703 E0.13653
G1 X166.744 Y115.799 E0.13725
G1 X169.072 Y113.444 E0.10383
G1 X171.308 Y110.964 E0.10469
G1 X174.179 Y107.352 E0.14469
G1 X175.554 Y105.434 E0.07400
G1 X176.878 Y103.452 E0.07471
G1 X180.445 Y97.310 E0.22272
G1 X181.543 Y95.125 E0.07665
G1 X182.562 Y92.937 E0.07569
G1 X184.434 Y88.408 E0.15366
G1 X185.301 Y86.029 E0.07939
G1 X186.095 Y83.633 E0.07915
G1 X187.500 Y78.713 E0.16042
G1 X187.717 Y78.240 E0.01630
G1 X188.069 Y77.874 E0.01594
G1 X188.596 Y77.660 E0.01785
G1 X189.324 Y77.742 E0.02297
G1 X190.018 Y78.580 E0.03410
G1 X190.118 Y79.182 E0.01915
G1 X190.118 Y86.830 E0.23980
G1 X189.974 Y92.448 E0.17620
G1 X189.535 Y98.112 E0.17811
G1 X188.811 Y103.677 E0.17598
G1 X187.207 Y111.829 E0.26049
G1 X185.787 Y117.151 E0.17272
G1 X184.094 Y122.347 E0.17135
G1 X182.140 Y127.386 E0.16945
G1 X180.491 Y131.053 E0.12606
G1 X180.106 Y131.828 E0.02714
G1 X176.925 Y136.565 E0.17890
G1 X177.095 Y137.345 E0.02503
G1 X175.914 Y138.054 E0.04320
G1 X172.767 Y142.193 E0.16303
G1 X170.248 Y145.249 E0.12415
G1 X167.723 Y148.068 E0.11869
G1 X164.337 Y151.539 E0.15204
G1 X161.691 Y154.016 E0.11361
G1 X159.004 Y156.298 E0.11055
G1 X156.327 Y158.394 E0.10661
G1 X153.590 Y160.313 E0.10481
G1 X150.824 Y162.076 E0.10286
G1 X148.026 Y163.640 E0.10048
G1 X145.205 Y165.045 E0.09882
G1 X142.287 Y166.275 E0.09927
G1 X138.563 Y167.572 E0.12366
G1 X135.650 Y168.373 E0.09472
G1 X132.727 Y168.964 E0.09349
G1 X129.838 Y169.381 E0.09154
G1 X127.082 Y169.531 E0.08653
G1 X122.815 Y169.531 E0.13379
G1 X120.132 Y169.393 E0.08423
G1 X117.219 Y168.978 E0.09228
G1 X114.319 Y168.398 E0.09271
G1 X111.433 Y167.611 E0.09379
G1 X108.558 Y166.660 E0.09494
G1 X104.789 Y165.105 E0.12783
G1 X102.872 Y164.185 E0.06669
G1 X99.142 Y162.137 E0.13340
G1 X96.348 Y160.362 E0.10378
G1 X91.833 Y157.091 E0.17481
G1 X89.130 Y154.846 E0.11019
G1 X84.779 Y150.816 E0.18594
G1 X82.189 Y148.122 E0.11720
G1 X78.917 Y144.415 E0.15503
G1 X74.476 Y138.757 E0.22551
G1 X71.734 Y134.921 E0.14785
G1 X70.106 Y132.477 E0.09208
G1 X67.869 Y128.907 E0.13209
G1 X66.454 Y126.406 E0.09009
G1 X67.328 Y125.890 E0.03182
G1 X66.898 Y124.907 E0.03365
G1 X65.944 Y122.345 E0.08572
G1 X64.670 Y118.494 E0.12718
G1 X63.508 Y114.504 E0.13029
G1 X62.836 Y111.841 E0.08613
G1 X61.691 Y106.404 E0.17421
G1 X60.827 Y100.876 E0.17541
G1 X60.373 Y96.668 E0.13270
G1 X59.959 Y89.675 E0.21966
G1 X59.922 Y86.827 E0.08931
G1 X59.922 Y79.179 E0.23978
G1 X60.017 Y78.624 E0.01765
G1 X60.370 Y78.027 E0.02176
G1 X61.135 Y77.658 E0.02662
G1 X61.231 Y78.030 F10800.000
G1 F1200
G1 X61.646 Y78.130 E0.01337
G1 X61.999 Y78.439 E0.01474
G1 X62.186 Y78.846 E0.01403
G1 X63.220 Y82.532 E0.12002
G1 X64.383 Y86.152 E0.11923
G1 X66.163 Y90.835 E0.15707
G1 X67.132 Y93.087 E0.07689
G1 X68.157 Y95.290 E0.07617
G1 X69.264 Y97.492 E0.07729
G1 X70.435 Y99.654 E0.07708
G1 X72.841 Y103.651 E0.14627
G1 X74.175 Y105.648 E0.07532
G1 X75.561 Y107.582 E0.07459
G1 X76.978 Y109.426 E0.07291
G1 X79.168 Y112.030 E0.10668
G1 X81.454 Y114.510 E0.10575
G1 X83.036 Y116.072 E0.06972
G1 X86.263 Y118.934 E0.13523
G1 X89.820 Y121.648 E0.14030
G1 X93.631 Y124.108 E0.14223
G1 X95.663 Y125.272 E0.07341
G1 X100.080 Y127.500 E0.15511
G1 X102.287 Y128.459 E0.07545
G1 X104.494 Y129.321 E0.07431
G1 X107.866 Y130.444 E0.11141
G1 X111.221 Y131.374 E0.10918
G1 X115.789 Y132.295 E0.14610
G1 X119.277 Y132.737 E0.11022
G1 X122.715 Y132.988 E0.10810
G1 X124.936 Y133.033 E0.06966
G1 X127.324 Y132.988 E0.07489
G1 X130.763 Y132.737 E0.10812
G1 X134.198 Y132.303 E0.10856
G1 X138.820 Y131.374 E0.14781
G1 X141.068 Y130.781 E0.07289
G1 X145.465 Y129.349 E0.14501
G1 X147.753 Y128.458 E0.07698
G1 X149.962 Y127.499 E0.07550
G1 X154.227 Y125.357 E0.14966
G1 X156.409 Y124.108 E0.07882
G1 X160.220 Y121.648 E0.14221
G1 X163.708 Y118.994 E0.13743
G1 X167.003 Y116.073 E0.13808
G1 X169.346 Y113.703 E0.10449
G1 X171.595 Y111.208 E0.10533
M73 Q1 S83
G1 X174.480 Y107.579 E0.14535
G1 X175.864 Y105.648 E0.07449
M73 P1 R82
G1 X177.198 Y103.652 E0.07527
G1 X180.777 Y97.489 E0.22345
G1 X181.883 Y95.290 E0.07719
G1 X182.907 Y93.088 E0.07613
G1 X184.785 Y88.544 E0.15417
G1 X185.657 Y86.153 E0.07982
G1 X186.456 Y83.744 E0.07957
G1 X187.855 Y78.844 E0.15977
G1 X188.033 Y78.456 E0.01340
G1 X188.285 Y78.193 E0.01141
G1 X188.649 Y78.046 E0.01232
G1 X189.131 Y78.100 E0.01521
G1 X189.663 Y78.742 E0.02614
G1 X189.741 Y79.213 E0.01498
G1 X189.741 Y86.826 E0.23868
G1 X189.598 Y92.429 E0.17574
G1 X189.160 Y98.073 E0.17749
G1 X188.439 Y103.616 E0.17529
G1 X186.840 Y111.744 E0.25971
G1 X185.426 Y117.044 E0.17200
G1 X183.739 Y122.221 E0.17070
G1 X181.792 Y127.240 E0.16882
G1 X180.150 Y130.892 E0.12552
G1 X179.780 Y131.639 E0.02614
G1 X176.522 Y136.488 E0.18316
G1 X176.669 Y137.161 E0.02159
G1 X175.658 Y137.768 E0.03699
G1 X172.471 Y141.959 E0.16507
G1 X169.962 Y145.003 E0.12367
G1 X167.447 Y147.811 E0.11819
G1 X164.073 Y151.270 E0.15152
G1 X161.440 Y153.734 E0.11306
G1 X158.766 Y156.006 E0.11002
G1 X156.102 Y158.091 E0.10606
G1 X153.380 Y159.999 E0.10424
G1 X150.630 Y161.752 E0.10226
G1 X147.850 Y163.307 E0.09986
G1 X145.048 Y164.702 E0.09817
G1 X142.152 Y165.922 E0.09852
G1 X138.451 Y167.211 E0.12289
G1 X135.562 Y168.006 E0.09392
G1 X132.663 Y168.592 E0.09275
G1 X129.801 Y169.006 E0.09068
G1 X127.072 Y169.154 E0.08568
G1 X122.825 Y169.154 E0.13317
G1 X120.169 Y169.017 E0.08339
G1 X117.282 Y168.606 E0.09141
G1 X114.406 Y168.031 E0.09197
G1 X111.542 Y167.250 E0.09307
G1 X108.690 Y166.306 E0.09420
G1 X104.943 Y164.761 E0.12708
G1 X103.044 Y163.850 E0.06603
G1 X99.334 Y161.813 E0.13270
G1 X96.560 Y160.050 E0.10305
G1 X92.065 Y156.793 E0.17406
G1 X89.379 Y154.563 E0.10948
G1 X85.044 Y150.547 E0.18527
G1 X82.466 Y147.866 E0.11661
G1 X79.207 Y144.173 E0.15443
G1 X74.778 Y138.531 E0.22490
G1 X72.044 Y134.707 E0.14738
G1 X70.422 Y132.272 E0.09172
G1 X68.193 Y128.714 E0.13166
G1 X66.965 Y126.543 E0.07822
G1 X67.402 Y126.284 E0.01593
G1 X69.160 Y129.134 E0.10497
G1 X67.247 Y124.765 E0.14951
G1 X66.300 Y122.220 E0.08517
G1 X65.031 Y118.382 E0.12675
G1 X63.872 Y114.405 E0.12987
G1 X63.203 Y111.756 E0.08568
G1 X62.062 Y106.336 E0.17367
G1 X61.201 Y100.827 E0.17481
G1 X60.749 Y96.637 E0.13214
G1 X60.336 Y89.661 E0.21910
G1 X60.299 Y86.824 E0.08896
G1 X60.299 Y79.211 E0.23870
G1 X60.377 Y78.756 E0.01447
G1 X60.637 Y78.317 E0.01601
G1 X61.177 Y78.056 E0.01882
G1 X61.404 Y77.669 F10800.000
G1 F8640
G1 X61.646 Y78.130 E-0.10951
G1 X61.999 Y78.439 E-0.10852
G1 X62.186 Y78.846 E-0.10329
G1 X63.220 Y82.532 E-0.88387
G1 X63.385 Y83.046 E-0.12481
G1 E-0.07000 F2100.00000
G1 Z0.400 F10800.000
G1 X191.383 Y110.970
G1 Z0.200
G1 E1.40000 F2100.00000
G1 F1200
G1 X192.660 Y108.117 E0.09802
G1 X192.582 Y108.117 E0.00245
G1 X193.145 Y106.828 E0.04411
G1 X196.287 Y106.828 E0.09850
G1 X195.341 Y109.088 E0.07682
G1 X195.470 Y109.088 E0.00403
G1 X193.633 Y113.419 E0.14751
G1 X190.962 Y119.266 E0.20155
G1 X188.299 Y124.613 E0.18729
G1 X186.164 Y128.605 E0.14194
G1 X183.955 Y132.444 E0.13886
G1 X181.579 Y136.323 E0.14266
G1 X177.765 Y141.887 E0.21148
G1 X174.610 Y146.210 E0.16782
G1 X173.005 Y148.275 E0.08201
G1 X170.463 Y151.300 E0.12389
G1 X167.909 Y154.096 E0.11872
G1 X164.475 Y157.546 E0.15261
G1 X161.806 Y159.995 E0.11358
G1 X159.094 Y162.255 E0.11071
G1 X156.394 Y164.327 E0.10671
G1 X153.636 Y166.222 E0.10493
G1 X150.853 Y167.962 E0.10289
G1 X148.041 Y169.504 E0.10056
G1 X145.210 Y170.886 E0.09879
G1 X142.359 Y172.068 E0.09675
G1 X138.453 Y173.396 E0.12937
G1 X135.639 Y174.155 E0.09138
G1 X132.717 Y174.734 E0.09339
G1 X132.142 Y174.815 E0.01821
G1 X131.533 Y175.309 E0.02460
G1 X131.099 Y175.580 E0.01604
G1 X130.593 Y175.838 E0.01781
G1 X130.027 Y176.076 E0.01927
G1 X129.407 Y176.290 E0.02056
G1 X128.740 Y176.475 E0.02170
G1 X128.034 Y176.629 E0.02266
G1 X127.294 Y176.752 E0.02351
G1 X126.531 Y176.841 E0.02410
G1 X125.751 Y176.894 E0.02450
G1 X124.963 Y176.913 E0.02472
G1 X124.176 Y176.894 E0.02469
G1 X123.395 Y176.841 E0.02453
G1 X122.632 Y176.752 E0.02409
G1 X121.893 Y176.629 E0.02348
G1 X121.186 Y176.475 E0.02269
G1 X120.520 Y176.290 E0.02170
G1 X119.899 Y176.076 E0.02056
G1 X119.333 Y175.838 E0.01927
G1 X118.827 Y175.580 E0.01781
G1 X118.393 Y175.309 E0.01605
G1 X117.795 Y174.827 E0.02407
G1 X117.227 Y174.748 E0.01800
G1 X114.328 Y174.180 E0.09262
G1 X111.441 Y173.409 E0.09369
G1 X108.497 Y172.448 E0.09710
G1 X104.774 Y170.941 E0.12595
G1 X102.869 Y170.045 E0.06599
G1 X99.109 Y168.021 E0.13387
G1 X96.309 Y166.277 E0.10344
G1 X91.744 Y163.034 E0.17557
G1 X89.029 Y160.823 E0.10978
G1 X84.622 Y156.820 E0.18670
G1 X82.010 Y154.155 E0.11699
G1 X78.696 Y150.475 E0.15527
G1 X74.683 Y145.463 E0.20131
G1 X73.347 Y143.696 E0.06947
G1 X71.297 Y140.874 E0.10935
G1 X69.754 Y138.598 E0.08622
G1 X67.486 Y135.049 E0.13207
G1 X62.350 Y126.125 E0.32285
G1 X60.275 Y122.086 E0.14236
G1 X57.620 Y116.533 E0.19298
G1 X56.138 Y113.149 E0.11585
G1 X56.286 Y113.043 E0.00569
G1 X53.761 Y106.885 E0.20867
G1 X56.831 Y106.885 E0.09624
G1 X57.004 Y107.294 E0.01393
G1 X56.983 Y107.309 E0.00079
G1 X57.327 Y108.118 E0.02757
G1 X57.307 Y108.118 E0.00062
G1 X58.182 Y110.185 E0.07037
G1 X58.114 Y110.217 E0.00237
G1 X60.784 Y115.916 E0.19733
G1 X61.955 Y118.241 E0.08163
G1 X63.085 Y117.687 E0.03947
G1 X59.260 Y109.675 E0.27838
G1 X58.206 Y110.174 E0.03656
G1 X60.872 Y106.068 E0.15350
G1 X60.043 Y100.531 E0.17552
G1 X59.508 Y95.120 E0.17050
G1 X59.232 Y89.561 E0.17450
G1 X59.198 Y86.786 E0.08703
G1 X59.198 Y36.373 E1.58065
G1 X59.919 Y36.373 E0.02261
G1 X59.922 Y54.880 E0.58027
G1 X59.956 Y57.441 E0.08031
G1 X60.144 Y61.321 E0.12178
G1 X60.471 Y65.175 E0.12130
G1 X60.968 Y68.999 E0.12088
G1 X61.600 Y72.789 E0.12050
G1 X62.399 Y76.526 E0.11981
G1 X63.332 Y80.211 E0.11918
G1 X64.426 Y83.822 E0.11831
G1 X65.666 Y87.411 E0.11905
G1 X67.030 Y90.820 E0.11514
G1 X68.531 Y94.181 E0.11540
G1 X70.167 Y97.402 E0.11327
G1 X71.957 Y100.592 E0.11471
G1 X73.158 Y102.538 E0.07168
G1 X74.485 Y104.543 E0.07538
G1 X75.853 Y106.467 E0.07403
G1 X77.203 Y108.241 E0.06991
G1 X79.441 Y110.924 E0.10953
G1 X82.510 Y114.194 E0.14063
G1 X85.704 Y117.143 E0.13629
G1 X88.286 Y119.249 E0.10447
G1 X90.063 Y120.549 E0.06905
G1 X92.861 Y122.380 E0.10483
G1 X97.044 Y124.775 E0.15114
G1 X100.258 Y126.363 E0.11240
G1 X102.440 Y127.312 E0.07461
G1 X104.664 Y128.180 E0.07486
G1 X107.956 Y129.276 E0.10879
G1 X112.417 Y130.452 E0.14464
G1 X115.901 Y131.130 E0.11128
G1 X118.167 Y131.446 E0.07173
G1 X121.580 Y131.742 E0.10742
G1 X124.992 Y131.857 E0.10704
G1 X128.464 Y131.742 E0.10892
G1 X133.034 Y131.286 E0.14400
G1 X136.485 Y130.705 E0.10972
G1 X138.733 Y130.206 E0.07222
G1 X142.118 Y129.266 E0.11014
G1 X145.489 Y128.137 E0.11147
G1 X149.777 Y126.366 E0.14546
G1 X153.045 Y124.748 E0.11433
G1 X156.189 Y122.994 E0.11289
G1 X159.974 Y120.550 E0.14128
G1 X161.754 Y119.249 E0.06912
G1 X164.336 Y117.143 E0.10448
G1 X167.527 Y114.197 E0.13618
