; generated by PrusaSlicer 2.1.1+win64 on 2020-03-25 at 10:46:27 UTC

; 

; external perimeters extrusion width = 0.45mm
; perimeters extrusion width = 0.45mm
; infill extrusion width = 0.45mm
; solid infill extrusion width = 0.45mm
; top infill extrusion width = 0.40mm
; first layer extrusion width = 0.42mm

M73 P0 R36
M73 Q0 S36
M201 X1000 Y1000 Z1000 E5000 ; sets maximum accelerations, mm/sec^2
M203 X200 Y200 Z12 E120 ; sets maximum feedrates, mm/sec
M204 P1250 R1250 T1250 ; sets acceleration (P, T) and retract acceleration (R), mm/sec^2
M205 X8.00 Y8.00 Z0.40 E4.50 ; sets the jerk limits, mm/sec
M205 S0 T0 ; sets the minimum extruding and travel feed rate, mm/sec
M107
M862.3 P "MK3" ; printer model check
M862.1 P0.4 ; nozzle diameter check
M115 U3.8.1 ; tell printer latest fw version
G90 ; use absolute coordinates
M83 ; extruder relative mode
M104 S240 ; set extruder temp
M140 S85 ; set bed temp
M190 S85 ; wait for bed temp
M109 S240 ; wait for extruder temp
G28 W ; home all without mesh bed level
G80 ; mesh bed leveling
G1 Y-3.0 F1000.0 ; go outside print area
G92 E0.0
G1 X60.0 E9.0 F1000.0 ; intro line
M73 Q0 S36
M73 P0 R36
G1 X100.0 E12.5 F1000.0 ; intro line
G92 E0.0
M221 S95
G21 ; set units to millimeters
G90 ; use absolute coordinates
M83 ; use relative distances for extrusion
M900 K45 ; Filament gcode
;BEFORE_LAYER_CHANGE
G92 E0.0
;0.2


G1 E-1.40000 F2100.00000
G1 Z0.200 F10800.000
;AFTER_LAYER_CHANGE
;0.2
G1 Z0.400
G1 X68.306 Y44.684
G1 Z0.200
G1 E1.40000 F2100.00000
M204 S1000
G1 F1200
G1 X68.653 Y44.319 E0.01578
G1 X69.073 Y44.042 E0.01578
G1 X69.542 Y43.870 E0.01567
G1 X70.041 Y43.808 E0.01578
G1 X179.389 Y43.808 E3.42852
G1 X180.256 Y43.826 E0.02720
G1 X180.873 Y44.001 E0.02010
G1 X181.456 Y44.386 E0.02191
G1 X181.889 Y44.935 E0.02191
G1 X182.106 Y45.499 E0.01896
G1 X183.250 Y50.753 E0.16861
G1 X186.910 Y106.258 E1.74410
G1 X186.795 Y106.744 E0.01567
G1 X185.674 Y109.684 E0.09865
G1 X184.252 Y113.034 E0.11409
G1 X182.110 Y117.734 E0.16196
G1 X179.805 Y122.376 E0.16250
G1 X177.969 Y125.812 E0.12214
G1 X176.005 Y129.222 E0.12338
G1 X173.539 Y133.186 E0.14636
G1 X171.243 Y136.535 E0.12732
G1 X167.936 Y141.065 E0.17587
G1 X164.525 Y145.204 E0.16817
G1 X162.397 Y147.529 E0.09883
G1 X159.517 Y150.419 E0.12792
G1 X157.225 Y152.523 E0.09756
G1 X154.879 Y154.478 E0.09574
G1 X152.557 Y156.259 E0.09176
G1 X150.155 Y157.910 E0.09136
G1 X147.751 Y159.412 E0.08891
G1 X145.301 Y160.756 E0.08760
G1 X142.827 Y161.964 E0.08631
G1 X140.362 Y162.986 E0.08368
G1 X137.085 Y164.112 E0.10864
G1 X129.453 Y166.548 E0.25120
G1 X128.023 Y166.905 E0.04622
G1 X126.514 Y167.118 E0.04777
G1 X124.970 Y167.189 E0.04848
G1 X123.423 Y167.118 E0.04853
G1 X121.904 Y166.902 E0.04812
G1 X120.498 Y166.552 E0.04544
G1 X110.481 Y163.353 E0.32970
G1 X107.147 Y162.003 E0.11278
G1 X105.464 Y161.210 E0.05833
G1 X102.508 Y159.625 E0.10516
G1 X99.660 Y157.864 E0.10501
G1 X95.872 Y155.167 E0.14581
G1 X93.377 Y153.133 E0.10092
G1 X90.240 Y150.285 E0.13284
G1 X87.396 Y147.430 E0.12638
G1 X84.544 Y144.254 E0.13383
G1 X81.672 Y140.690 E0.14352
G1 X78.895 Y136.974 E0.14544
G1 X77.277 Y134.621 E0.08953
G1 X74.775 Y130.689 E0.14613
G1 X70.995 Y124.114 E0.23779
G1 X69.042 Y120.335 E0.13339
G1 X66.842 Y115.738 E0.15979
G1 X65.394 Y112.433 E0.11313
G1 X63.157 Y106.474 E0.19958
G1 X63.097 Y105.661 E0.02555
G1 X66.697 Y50.834 E1.72278
G1 X67.940 Y45.443 E0.17346
G1 X68.280 Y44.738 E0.02454
G1 F8640
G1 X68.653 Y44.319 E-0.12947
G1 X69.073 Y44.042 E-0.11620
G1 X69.542 Y43.870 E-0.11536
G1 X70.041 Y43.808 E-0.11620
G1 X73.735 Y43.808 E-0.85276
G1 E-0.07000 F2100.00000
G1 Z0.400 F10800.000
G1 X72.173 Y82.245
G1 Z0.200
G1 E1.40000 F2100.00000
G1 F1200
G1 X72.762 Y82.383 E0.01895
G1 X73.191 Y82.757 E0.01786
G1 X73.404 Y83.210 E0.01570
G1 X74.268 Y86.286 E0.10019
G1 X75.230 Y89.280 E0.09858
G1 X76.702 Y93.149 E0.12980
G1 X77.494 Y94.987 E0.06277
G1 X78.330 Y96.784 E0.06213
G1 X79.249 Y98.613 E0.06419
G1 X80.227 Y100.414 E0.06424
G1 X82.166 Y103.634 E0.11787
G1 X83.278 Y105.301 E0.06284
G1 X84.433 Y106.912 E0.06214
G1 X85.600 Y108.429 E0.06002
G1 X87.385 Y110.550 E0.08692
G1 X89.254 Y112.577 E0.08643
G1 X90.543 Y113.851 E0.05685
G1 X93.152 Y116.167 E0.10936
G1 X96.137 Y118.449 E0.11783
G1 X99.235 Y120.448 E0.11560
G1 X100.853 Y121.375 E0.05846
G1 X104.546 Y123.243 E0.12975
G1 X106.368 Y124.035 E0.06228
G1 X108.174 Y124.740 E0.06082
G1 X110.954 Y125.665 E0.09184
G1 X113.683 Y126.422 E0.08880
G1 X117.435 Y127.179 E0.12001
G1 X120.322 Y127.545 E0.09126
G1 X123.132 Y127.750 E0.08832
G1 X124.889 Y127.786 E0.05512
G1 X126.901 Y127.750 E0.06310
G1 X129.711 Y127.545 E0.08833
G1 X132.516 Y127.192 E0.08865
G1 X136.354 Y126.421 E0.12273
G1 X138.182 Y125.939 E0.05927
G1 X141.737 Y124.782 E0.11723
G1 X143.666 Y124.034 E0.06486
G1 X145.489 Y123.243 E0.06230
G1 X148.958 Y121.501 E0.12173
G1 X150.798 Y120.448 E0.06646
G1 X153.895 Y118.450 E0.11557
G1 X156.786 Y116.250 E0.11390
G1 X159.487 Y113.854 E0.11323
G1 X161.396 Y111.924 E0.08510
G1 X163.221 Y109.899 E0.08547
G1 X165.603 Y106.907 E0.11992
G1 X166.755 Y105.301 E0.06195
G1 X167.864 Y103.639 E0.06266
G1 X170.787 Y98.605 E0.18252
G1 X171.703 Y96.784 E0.06392
G1 X172.538 Y94.991 E0.06200
G1 X174.075 Y91.276 E0.12608
G1 X174.803 Y89.281 E0.06658
G1 X175.465 Y87.287 E0.06587
G1 X176.629 Y83.209 E0.13297
G1 X176.816 Y82.802 E0.01404
G1 X177.131 Y82.470 E0.01435
G1 X177.610 Y82.269 E0.01630
G1 X178.276 Y82.344 E0.02102
G1 X178.899 Y83.083 E0.03028
G1 X178.992 Y83.624 E0.01721
G1 X178.992 Y89.965 E0.19881
G1 X178.868 Y94.686 E0.14809
G1 X178.515 Y99.259 E0.14381
G1 X177.917 Y103.872 E0.14583
G1 X176.593 Y110.618 E0.21557
G1 X175.384 Y115.149 E0.14703
G1 X174.004 Y119.382 E0.13961
G1 X172.385 Y123.557 E0.14040
G1 X171.015 Y126.604 E0.10475
G1 X170.688 Y127.263 E0.02305
G1 X168.118 Y131.091 E0.14457
G1 X168.456 Y132.645 E0.04988
G1 X165.857 Y134.208 E0.09508
G1 X164.611 Y135.843 E0.06445
G1 X162.517 Y138.382 E0.10321
G1 X160.424 Y140.719 E0.09835
G1 X157.632 Y143.581 E0.12537
G1 X155.433 Y145.640 E0.09446
G1 X153.199 Y147.538 E0.09191
G1 X150.986 Y149.269 E0.08809
G1 X148.717 Y150.860 E0.08689
G1 X146.423 Y152.322 E0.08528
G1 X144.104 Y153.619 E0.08333
G1 X141.764 Y154.785 E0.08195
G1 X139.400 Y155.784 E0.08047
G1 X136.262 Y156.878 E0.10420
G1 X133.837 Y157.545 E0.07885
G1 X131.405 Y158.037 E0.07781
G1 X129.014 Y158.382 E0.07574
G1 X126.755 Y158.506 E0.07092
G1 X123.166 Y158.506 E0.11254
G1 X120.962 Y158.391 E0.06922
G1 X118.543 Y158.047 E0.07659
G1 X116.137 Y157.566 E0.07692
G1 X113.743 Y156.913 E0.07782
G1 X111.358 Y156.124 E0.07877
G1 X108.240 Y154.838 E0.10574
G1 X106.641 Y154.071 E0.05562
G1 X103.549 Y152.373 E0.11059
G1 X101.326 Y150.962 E0.08256
G1 X97.590 Y148.264 E0.14446
G1 X95.241 Y146.322 E0.09557
G1 X91.643 Y142.989 E0.15379
G1 X89.489 Y140.748 E0.09746
G1 X86.804 Y137.706 E0.12722
G1 X83.130 Y133.031 E0.18643
G1 X80.863 Y129.861 E0.12218
G1 X79.485 Y127.794 E0.07789
G1 X77.638 Y124.846 E0.10908
G1 X76.607 Y123.028 E0.06553
G1 X77.305 Y122.616 E0.02539
G1 X76.821 Y121.513 E0.03778
G1 X76.028 Y119.380 E0.07136
G1 X74.981 Y116.214 E0.10455
G1 X74.010 Y112.884 E0.10876
G1 X73.457 Y110.693 E0.07085
G1 X72.508 Y106.189 E0.14431
G1 X71.792 Y101.610 E0.14533
G1 X71.415 Y98.113 E0.11025
G1 X71.072 Y92.339 E0.18138
G1 X71.041 Y89.961 E0.07457
G1 X71.041 Y83.621 E0.19879
G1 X71.126 Y83.133 E0.01553
G1 X71.434 Y82.611 E0.01901
G1 X72.119 Y82.272 E0.02395
G1 X72.219 Y82.643 F10800.000
G1 F1200
G1 X72.585 Y82.729 E0.01177
G1 X72.884 Y82.989 E0.01243
G1 X73.050 Y83.342 E0.01223
G1 X73.906 Y86.395 E0.09943
G1 X74.874 Y89.404 E0.09911
G1 X76.352 Y93.290 E0.13036
G1 X77.149 Y95.142 E0.06320
G1 X77.990 Y96.948 E0.06248
G1 X78.915 Y98.788 E0.06455
G1 X79.899 Y100.601 E0.06469
G1 X81.847 Y103.836 E0.11841
G1 X82.968 Y105.516 E0.06331
G1 X84.131 Y107.137 E0.06254
G1 X85.306 Y108.665 E0.06047
G1 X87.102 Y110.800 E0.08745
G1 X88.982 Y112.839 E0.08698
G1 X90.285 Y114.127 E0.05744
G1 X92.905 Y116.452 E0.10983
G1 X93.114 Y116.628 E0.00857
G1 X95.921 Y118.759 E0.11048
G1 X99.039 Y120.771 E0.11636
G1 X100.666 Y121.703 E0.05880
G1 X100.896 Y121.833 E0.00829
G1 X104.386 Y123.585 E0.12243
G1 X106.224 Y124.383 E0.06283
G1 X108.046 Y125.095 E0.06134
G1 X110.844 Y126.026 E0.09244
G1 X113.595 Y126.789 E0.08952
G1 X117.374 Y127.551 E0.12086
G1 X120.285 Y127.920 E0.09201
G1 X123.114 Y128.127 E0.08895
G1 X124.889 Y128.163 E0.05565
G1 X126.919 Y128.127 E0.06366
G1 X129.748 Y127.920 E0.08896
G1 X132.577 Y127.564 E0.08939
G1 X136.439 Y126.789 E0.12352
G1 X138.289 Y126.301 E0.05996
G1 X141.864 Y125.138 E0.11789
G1 X143.809 Y124.383 E0.06542
G1 X145.648 Y123.585 E0.06286
G1 X149.137 Y121.833 E0.12238
G1 X150.994 Y120.771 E0.06709
G1 X154.111 Y118.759 E0.11634
G1 X157.025 Y116.541 E0.11480
G1 X159.747 Y114.128 E0.11406
G1 X161.670 Y112.183 E0.08576
G1 X163.509 Y110.143 E0.08611
G1 X165.904 Y107.134 E0.12058
G1 X167.065 Y105.516 E0.06244
G1 X168.184 Y103.839 E0.06323
G1 X171.119 Y98.785 E0.18324
G1 X172.043 Y96.948 E0.06446
G1 X172.883 Y95.143 E0.06243
G1 X174.427 Y91.412 E0.12659
G1 X175.159 Y89.405 E0.06700
G1 X175.825 Y87.398 E0.06630
G1 X176.984 Y83.340 E0.13232
G1 X177.132 Y83.016 E0.01117
G1 X177.350 Y82.787 E0.00989
G1 X177.666 Y82.655 E0.01074
G1 X178.085 Y82.702 E0.01324
G1 X178.545 Y83.247 E0.02236
G1 X178.615 Y83.656 E0.01299
G1 X178.615 Y89.960 E0.19765
G1 X178.492 Y94.667 E0.14763
G1 X178.139 Y99.220 E0.14320
G1 X177.545 Y103.811 E0.14514
G1 X176.225 Y110.533 E0.21479
G1 X175.022 Y115.042 E0.14631
G1 X173.648 Y119.256 E0.13897
G1 X172.037 Y123.412 E0.13977
G1 X170.674 Y126.443 E0.10421
G1 X170.362 Y127.073 E0.02205
G1 X167.715 Y131.014 E0.14884
G1 X168.030 Y132.461 E0.04644
G1 X165.649 Y133.893 E0.08712
G1 X165.641 Y133.870 E0.00078
G1 X164.316 Y135.608 E0.06855
G1 X162.231 Y138.137 E0.10274
G1 X160.149 Y140.461 E0.09786
G1 X157.368 Y143.311 E0.12485
G1 X155.182 Y145.359 E0.09391
G1 X152.960 Y147.245 E0.09139
G1 X150.762 Y148.966 E0.08754
G1 X148.507 Y150.547 E0.08632
G1 X146.230 Y151.998 E0.08468
G1 X143.928 Y153.286 E0.08270
G1 X141.607 Y154.442 E0.08130
G1 X139.265 Y155.432 E0.07972
G1 X136.150 Y156.518 E0.10343
G1 X133.750 Y157.178 E0.07805
G1 X131.340 Y157.665 E0.07707
G1 X128.977 Y158.006 E0.07489
G1 X126.745 Y158.129 E0.07007
G1 X123.176 Y158.129 E0.11190
G1 X120.998 Y158.016 E0.06839
G1 X118.607 Y157.675 E0.07573
G1 X116.224 Y157.198 E0.07619
G1 X113.852 Y156.552 E0.07710
G1 X111.489 Y155.770 E0.07803
G1 X108.394 Y154.493 E0.10499
G1 X106.813 Y153.735 E0.05496
G1 X103.741 Y152.048 E0.10989
G1 X101.537 Y150.649 E0.08184
G1 X97.821 Y147.966 E0.14372
G1 X95.489 Y146.039 E0.09485
G1 X91.907 Y142.720 E0.15312
G1 X89.766 Y140.493 E0.09686
G1 X87.094 Y137.465 E0.12663
G1 X83.432 Y132.804 E0.18583
G1 X81.173 Y129.647 E0.12172
G1 X79.802 Y127.590 E0.07753
G1 X77.962 Y124.653 E0.10865
G1 X77.118 Y123.165 E0.05365
G1 X77.556 Y122.906 E0.01594
G1 X78.546 Y124.512 E0.05916
G1 X77.171 Y121.371 E0.10750
G1 X76.384 Y119.255 E0.07081
G1 X75.341 Y116.102 E0.10412
G1 X74.374 Y112.785 E0.10833
G1 X73.825 Y110.608 E0.07040
G1 X72.879 Y106.121 E0.14377
M73 Q2 S35
G1 X72.166 Y101.560 E0.14473
M73 P2 R35
G1 X71.791 Y98.082 E0.10969
G1 X71.449 Y92.325 E0.18082
G1 X71.418 Y89.958 E0.07422
G1 X71.418 Y83.653 E0.19769
G1 X71.486 Y83.265 E0.01234
G1 X71.702 Y82.899 E0.01334
G1 X72.165 Y82.670 E0.01620
G1 X72.380 Y82.304 F10800.000
G1 F8640
G1 X72.585 Y82.729 E-0.09780
G1 X72.884 Y82.989 E-0.09154
G1 X73.050 Y83.342 E-0.09005
G1 X73.906 Y86.395 E-0.73222
G1 X74.328 Y87.708 E-0.31839
G1 E-0.07000 F2100.00000
G1 Z0.400 F10800.000
G1 X71.634 Y110.811
G1 Z0.200
G1 E1.40000 F2100.00000
G1 F1200
G1 X73.553 Y114.830 E0.13965
G1 X72.422 Y115.384 E0.03947
G1 X71.764 Y114.078 E0.04587
G1 X70.488 Y111.353 E0.09435
G1 X71.579 Y110.836 E0.03786
G1 X71.455 Y111.312 F10800.000
G1 F1200
G1 X73.052 Y114.656 E0.11617
G1 X72.591 Y114.881 E0.01607
G1 X72.104 Y113.913 E0.03400
G1 X70.989 Y111.533 E0.08241
G1 X71.401 Y111.338 E0.01430
G1 X71.703 Y110.998 F10800.000
G1 F8640
G1 X73.052 Y114.656 E-0.85570
G1 X72.591 Y114.881 E-0.11836
G1 X72.104 Y113.913 E-0.25042
G1 X71.910 Y113.499 E-0.10552
G1 E-0.07000 F2100.00000
G1 Z0.400 F10800.000
G1 X69.701 Y109.499
G1 Z0.200
G1 E1.40000 F2100.00000
G1 F1200
G1 X72.033 Y105.908 E0.13426
G1 X71.342 Y101.277 E0.14682
G1 X70.903 Y96.843 E0.13970
G1 X70.672 Y92.210 E0.14544
G1 X70.645 Y89.902 E0.07238
G1 X70.645 Y48.187 E1.30793
G1 X71.037 Y48.187 E0.01231
G1 X71.041 Y63.522 E0.48081
G1 X71.069 Y65.628 E0.06602
G1 X71.225 Y68.850 E0.10115
G1 X71.495 Y72.044 E0.10051
G1 X71.906 Y75.213 E0.10017
G1 X72.430 Y78.354 E0.09985
G1 X73.092 Y81.450 E0.09929
G1 X73.865 Y84.504 E0.09876
G1 X74.771 Y87.498 E0.09809
G1 X75.812 Y90.507 E0.09980
G1 X76.933 Y93.309 E0.09464
G1 X78.179 Y96.097 E0.09575
G1 X79.577 Y98.843 E0.09661
G1 X81.035 Y101.437 E0.09329
G1 X81.997 Y102.996 E0.05745
G1 X83.117 Y104.687 E0.06360
G1 X84.262 Y106.297 E0.06195
G1 X85.344 Y107.720 E0.05604
G1 X87.228 Y109.979 E0.09221
G1 X89.764 Y112.681 E0.11621
G1 X92.373 Y115.090 E0.11135
G1 X94.546 Y116.865 E0.08796
G1 X96.043 Y117.961 E0.05818
G1 X98.357 Y119.475 E0.08671
G1 X101.820 Y121.457 E0.12510
G1 X104.485 Y122.774 E0.09319
G1 X106.297 Y123.562 E0.06197
G1 X108.159 Y124.287 E0.06264
G1 X110.865 Y125.188 E0.08943
G1 X114.538 Y126.156 E0.11911
G1 X117.483 Y126.729 E0.09406
G1 X119.347 Y126.989 E0.05900
G1 X122.164 Y127.232 E0.08866
G1 X124.974 Y127.327 E0.08813
G1 X127.872 Y127.232 E0.09094
G1 X131.663 Y126.854 E0.11943
G1 X134.550 Y126.367 E0.09181
G1 X136.401 Y125.956 E0.05947
G1 X139.226 Y125.170 E0.09191
G1 X142.045 Y124.223 E0.09325
G1 X145.543 Y122.776 E0.11870
G1 X148.289 Y121.416 E0.09609
G1 X150.884 Y119.967 E0.09318
G1 X153.988 Y117.962 E0.11585
G1 X155.487 Y116.865 E0.05825
G1 X157.660 Y115.090 E0.08796
G1 X160.266 Y112.683 E0.11124
G1 X162.228 Y110.639 E0.08884
G1 X163.449 Y109.242 E0.05817
G1 X164.691 Y107.717 E0.06165
G1 X165.771 Y106.297 E0.05593
G1 X166.918 Y104.685 E0.06204
G1 X168.516 Y102.217 E0.09218
G1 X170.069 Y99.571 E0.09620
G1 X171.422 Y96.969 E0.09196
G1 X172.700 Y94.252 E0.09413
G1 X173.470 Y92.433 E0.06195
G1 X174.600 Y89.448 E0.10006
G1 X175.856 Y85.572 E0.12776
G1 X176.692 Y82.512 E0.09944
G1 X177.180 Y80.421 E0.06734
G1 X177.970 Y76.265 E0.13265
G1 X178.537 Y72.049 E0.13338
G1 X178.734 Y69.953 E0.06600
G1 X178.879 Y67.783 E0.06820
G1 X178.963 Y65.679 E0.06602
G1 X178.992 Y63.523 E0.06761
G1 X178.992 Y48.187 E0.48082
G1 X179.389 Y48.188 E0.01243
G1 X179.388 Y89.981 E1.31041
G1 X179.280 Y94.387 E0.13818
G1 X179.131 Y96.839 E0.07703
G1 X178.688 Y101.301 E0.14059
G1 X178.370 Y103.613 E0.07318
G1 X178.015 Y105.792 E0.06921
G1 X177.696 Y107.376 E0.05066
G1 X179.933 Y110.095 E0.11040
G1 X180.963 Y107.765 E0.07987
G1 X181.376 Y106.762 E0.03400
G1 X181.400 Y106.762 E0.00075
G1 X181.473 Y106.589 E0.00589
G1 X183.853 Y106.589 E0.07461
G1 X182.661 Y109.427 E0.09652
G1 X182.768 Y109.427 E0.00334
G1 X181.713 Y111.912 E0.08464
G1 X179.482 Y116.794 E0.16830
G1 X177.301 Y121.174 E0.15340
G1 X175.530 Y124.486 E0.11774
G1 X173.698 Y127.669 E0.11517
G1 X171.690 Y130.942 E0.12040
G1 X168.613 Y135.431 E0.17063
G1 X165.958 Y139.068 E0.14119
G1 X164.657 Y140.742 E0.06646
G1 X162.542 Y143.258 E0.10306
G1 X160.431 Y145.568 E0.09812
G1 X157.606 Y148.406 E0.12556
G1 X155.394 Y150.437 E0.09415
G1 X153.146 Y152.310 E0.09176
G1 X150.922 Y154.016 E0.08788
G1 X148.643 Y155.582 E0.08669
G1 X146.345 Y157.019 E0.08499
G1 X144.022 Y158.293 E0.08305
G1 X141.684 Y159.434 E0.08158
G1 X139.331 Y160.409 E0.07986
G1 X136.082 Y161.513 E0.10760
G1 X133.782 Y162.133 E0.07468
G1 X131.363 Y162.612 E0.07733
G1 X130.869 Y162.681 E0.01562
G1 X130.348 Y163.104 E0.02106
G1 X129.998 Y163.323 E0.01294
G1 X129.586 Y163.533 E0.01449
G1 X129.124 Y163.727 E0.01572
G1 X128.617 Y163.902 E0.01681
G1 X128.071 Y164.054 E0.01778
G1 X127.492 Y164.180 E0.01858
G1 X126.884 Y164.281 E0.01930
G1 X126.257 Y164.354 E0.01979
G1 X125.617 Y164.398 E0.02013
G1 X124.969 Y164.413 E0.02031
G1 X124.323 Y164.398 E0.02029
G1 X123.681 Y164.354 E0.02015
G1 X123.054 Y164.281 E0.01979
G1 X122.448 Y164.180 E0.01928
