; generated by PrusaSlicer 2.2.0+win64 on 2020-03-30 at 19:12:30 UTC

; 

; external perimeters extrusion width = 0.60mm
; perimeters extrusion width = 0.43mm
; infill extrusion width = 0.45mm
; solid infill extrusion width = 0.70mm
; top infill extrusion width = 0.43mm
; support material extrusion width = 0.37mm
; first layer extrusion width = 0.42mm

M73 P0 R86
M201 X9000 Y9000 Z500 E10000 ; sets maximum accelerations, mm/sec^2
M203 X500 Y500 Z12 E120 ; sets maximum feedrates, mm/sec
M204 P2000 R1500 T2000 ; sets acceleration (P, T) and retract acceleration (R), mm/sec^2
M205 X10.00 Y10.00 Z0.20 E4.50 ; sets the jerk limits, mm/sec
M205 S0 T0 ; sets the minimum extruding and travel feed rate, mm/sec
M107
M862.3 P "MK2.5" ; printer model check
M862.1 P0.4 ; nozzle diameter check
M115 U3.8.1 ; tell printer latest fw version
G90 ; use absolute coordinates
M83 ; extruder relative mode
M104 S230 ; set extruder temp
M140 S85 ; set bed temp
M190 S85 ; wait for bed temp
M109 S230 ; wait for extruder temp
G28 W ; home all without mesh bed level
G80 ; mesh bed leveling
G1 Y-3.0 F1000.0 ; go outside print area
G92 E0.0
G1 X60.0 E9.0 F1000.0 ; intro line
M73 P0 R86
G1 X100.0 E12.5 F1000.0 ; intro line
G92 E0.0
G21 ; set units to millimeters
G90 ; use absolute coordinates
M83 ; use relative distances for extrusion
M900 K45 ; Filament gcode
;BEFORE_LAYER_CHANGE
G92 E0.0
;0.2


G1 E-1.40000 F2100.00000
G1 Z0.200 F10800.000
;AFTER_LAYER_CHANGE
;0.2
G1 Z0.400
G1 X49.921 Y49.448
G1 Z0.200
G1 E1.40000 F2100.00000
M204 S1000
G1 F1200.000
G1 X51.012 Y48.124 E0.05380
G1 X52.204 Y46.973 E0.05195
G1 X53.525 Y46.019 E0.05110
G1 X55.140 Y45.178 E0.05707
G1 X112.115 Y19.488 E1.95961
G1 X112.909 Y19.343 E0.02532
G1 X125.668 Y19.343 E0.40004
G1 X126.174 Y19.398 E0.01597
G1 X126.654 Y19.559 E0.01585
G1 X159.459 Y34.798 E1.13415
G1 X164.102 Y37.239 E0.16448
G1 X168.541 Y40.031 E0.16443
G1 X172.797 Y43.181 E0.16602
G1 X176.776 Y46.624 E0.16498
G1 X178.554 Y48.426 E0.07935
G1 X181.457 Y51.685 E0.13684
G1 X184.334 Y55.275 E0.14426
G1 X186.989 Y58.983 E0.14299
G1 X189.554 Y63.005 E0.14958
G1 X191.877 Y67.150 E0.14895
G1 X193.955 Y71.412 E0.14869
G1 X195.847 Y75.930 E0.15359
G1 X197.472 Y80.568 E0.15407
G1 X198.803 Y85.252 E0.15270
G1 X202.593 Y100.400 E0.48958
G1 X203.009 Y103.803 E0.10751
G1 X203.009 Y106.257 E0.07695
G1 X202.598 Y109.624 E0.10635
G1 X198.801 Y124.793 E0.49029
G1 X197.450 Y129.533 E0.15452
G1 X195.855 Y134.081 E0.15111
G1 X193.978 Y138.569 E0.15254
G1 X191.844 Y142.937 E0.15244
G1 X189.548 Y147.028 E0.14706
G1 X187.010 Y151.008 E0.14801
G1 X184.334 Y154.743 E0.14405
G1 X181.512 Y158.266 E0.14154
G1 X178.554 Y161.589 E0.13952
G1 X176.734 Y163.431 E0.08117
G1 X172.767 Y166.855 E0.16430
G1 X168.641 Y169.908 E0.16094
G1 X163.931 Y172.864 E0.17435
G1 X159.467 Y175.204 E0.15801
G1 X126.595 Y190.467 E1.13636
G1 X125.696 Y190.657 E0.02884
G1 X112.755 Y190.650 E0.40575
G1 X111.947 Y190.443 E0.02614
G1 X55.090 Y164.409 E1.96071
G1 X53.344 Y163.476 E0.06208
G1 X52.174 Y162.615 E0.04555
G1 X51.081 Y161.562 E0.04758
G1 X49.931 Y160.181 E0.05635
G1 X48.572 Y157.893 E0.08343
G1 X47.886 Y156.286 E0.05476
G1 X47.279 Y154.153 E0.06955
G1 X47.017 Y152.442 E0.05428
G1 X46.942 Y150.418 E0.06351
G1 X46.941 Y59.241 E2.85878
G1 X47.012 Y57.226 E0.06322
G1 X47.280 Y55.462 E0.05596
G1 X47.905 Y53.278 E0.07121
G1 X48.596 Y51.676 E0.05470
G1 X49.890 Y49.500 E0.07940
G1 F8640.000
G1 X51.012 Y48.124 E-0.40988
G1 X52.204 Y46.973 E-0.38260
G1 X53.525 Y46.019 E-0.37628
G1 X54.145 Y45.696 E-0.16123
G1 E-0.07000 F2100.00000
G1 Z0.400 F10800.000
G1 X107.654 Y34.768
G1 Z0.200
G1 E1.40000 F2100.00000
G1 F1200.000
G1 X107.654 Y26.310 E0.26521
G1 X106.900 Y26.310 E0.02365
G1 X106.900 Y34.783 E0.26568
G1 X106.146 Y34.973 E0.02438
G1 X106.146 Y26.140 E0.27695
G1 X132.542 Y26.140 F10800.000
G1 F1200.000
G1 X132.542 Y30.967 E0.15133
G1 X131.787 Y30.967 E0.02365
G1 X131.787 Y26.310 E0.14601
G1 X131.033 Y26.310 E0.02365
G1 X131.033 Y30.967 E0.14602
G1 X130.279 Y30.967 E0.02365
G1 X130.279 Y26.310 E0.14602
G1 X129.525 Y26.310 E0.02365
G1 X129.525 Y30.967 E0.14602
G1 X128.771 Y30.967 E0.02365
G1 X128.771 Y26.310 E0.14602
G1 X128.017 Y26.310 E0.02365
G1 X128.017 Y30.967 E0.14602
G1 X127.262 Y30.967 E0.02365
G1 X127.262 Y24.015 E0.21798
G1 X126.508 Y24.015 E0.02365
G1 X126.508 Y30.967 E0.21798
G1 X125.754 Y30.967 E0.02365
G1 X125.754 Y24.015 E0.21798
G1 X125.664 Y24.015 E0.00283
G1 X125.664 Y21.720 E0.07195
G1 X125.000 Y21.720 E0.02082
G1 X125.000 Y30.967 E0.28993
G1 X124.246 Y30.967 E0.02365
G1 X124.246 Y21.720 E0.28993
G1 X123.492 Y21.720 E0.02365
G1 X123.492 Y30.967 E0.28993
G1 X122.738 Y30.967 E0.02365
G1 X122.738 Y21.720 E0.28993
G1 X121.983 Y21.720 E0.02365
G1 X121.983 Y30.967 E0.28993
G1 X121.229 Y30.967 E0.02365
G1 X121.229 Y21.720 E0.28993
G1 X120.475 Y21.720 E0.02365
G1 X120.475 Y30.967 E0.28993
G1 X119.721 Y30.967 E0.02365
G1 X119.721 Y21.720 E0.28993
G1 X118.967 Y21.720 E0.02365
G1 X118.967 Y30.967 E0.28993
G1 X118.213 Y30.967 E0.02365
G1 X118.213 Y21.720 E0.28993
G1 X117.458 Y21.720 E0.02365
G1 X117.458 Y30.967 E0.28993
G1 X116.704 Y30.967 E0.02365
G1 X116.704 Y21.720 E0.28993
G1 X115.950 Y21.720 E0.02365
G1 X115.950 Y30.967 E0.28993
G1 X115.196 Y30.967 E0.02365
G1 X115.196 Y21.720 E0.28993
G1 X114.442 Y21.720 E0.02365
G1 X114.442 Y30.967 E0.28993
G1 X113.688 Y30.967 E0.02365
G1 X113.688 Y21.720 E0.28993
G1 X112.933 Y21.720 E0.02365
G1 X112.933 Y30.967 E0.28993
G1 X112.179 Y30.967 E0.02365
G1 X112.179 Y24.015 E0.21798
G1 X111.425 Y24.015 E0.02365
G1 X111.425 Y30.967 E0.21798
G1 X110.671 Y31.008 E0.02368
G1 X110.671 Y24.015 E0.21926
G1 X110.567 Y24.015 E0.00327
G1 X110.567 Y26.310 E0.07195
G1 X109.917 Y26.310 E0.02038
G1 X109.917 Y31.059 E0.14890
G1 X109.163 Y31.122 E0.02373
G1 X109.163 Y26.310 E0.15088
G1 X108.409 Y26.310 E0.02365
G1 X108.409 Y31.305 E0.15662
G1 X107.912 Y31.422 E0.01598
G1 X108.013 Y32.286 E0.02728
G1 X108.409 Y32.286 E0.01241
G1 X108.409 Y34.404 E0.06639
G1 X109.163 Y34.214 E0.02438
G1 X109.163 Y32.286 E0.06044
G1 X109.917 Y32.286 E0.02365
G1 X109.917 Y34.062 E0.05569
G1 X110.671 Y34.011 E0.02370
G1 X110.671 Y32.286 E0.05410
G1 X111.425 Y32.286 E0.02365
G1 X111.425 Y33.967 E0.05270
G1 X112.179 Y33.967 E0.02365
G1 X112.179 Y32.286 E0.05270
G1 X112.933 Y32.286 E0.02365
G1 X112.933 Y33.967 E0.05270
G1 X113.688 Y33.967 E0.02365
G1 X113.688 Y32.286 E0.05270
G1 X114.442 Y32.286 E0.02365
G1 X114.442 Y33.967 E0.05270
G1 X115.196 Y33.967 E0.02365
G1 X115.196 Y32.286 E0.05270
G1 X115.950 Y32.286 E0.02365
G1 X115.950 Y33.967 E0.05270
G1 X116.704 Y33.967 E0.02365
G1 X116.704 Y32.286 E0.05270
G1 X117.458 Y32.286 E0.02365
G1 X117.458 Y33.967 E0.05270
G1 X118.213 Y33.967 E0.02365
G1 X118.213 Y32.286 E0.05270
G1 X118.967 Y32.286 E0.02365
G1 X118.967 Y33.967 E0.05270
G1 X119.721 Y33.967 E0.02365
G1 X119.721 Y32.286 E0.05270
G1 X120.475 Y32.286 E0.02365
G1 X120.475 Y33.967 E0.05270
G1 X121.229 Y33.967 E0.02365
G1 X121.229 Y32.286 E0.05270
G1 X121.983 Y32.286 E0.02365
G1 X121.983 Y33.967 E0.05270
G1 X122.738 Y33.967 E0.02365
G1 X122.738 Y32.286 E0.05270
G1 X123.492 Y32.286 E0.02365
G1 X123.492 Y33.967 E0.05270
G1 X124.246 Y33.967 E0.02365
G1 X124.246 Y32.286 E0.05270
G1 X125.000 Y32.286 E0.02365
G1 X125.000 Y33.967 E0.05270
G1 X125.754 Y33.967 E0.02365
G1 X125.754 Y32.286 E0.05270
G1 X126.508 Y32.286 E0.02365
G1 X126.508 Y33.967 E0.05270
G1 X127.262 Y33.967 E0.02365
G1 X127.262 Y32.286 E0.05270
G1 X128.017 Y32.286 E0.02365
G1 X128.017 Y33.967 E0.05270
G1 X128.771 Y33.967 E0.02365
G1 X128.771 Y32.286 E0.05270
G1 X129.525 Y32.286 E0.02365
G1 X129.525 Y33.967 E0.05270
G1 X130.279 Y33.967 E0.02365
G1 X130.279 Y32.286 E0.05270
G1 X131.033 Y32.286 E0.02365
G1 X131.033 Y33.967 E0.05269
G1 X131.787 Y33.967 E0.02365
G1 X131.787 Y32.286 E0.05269
G1 X132.542 Y32.286 E0.02365
G1 X132.542 Y34.136 E0.05801
G1 F8640.000
G1 X132.542 Y32.286 E-0.42720
G1 X131.787 Y32.286 E-0.17414
G1 X131.787 Y33.967 E-0.38804
G1 X131.033 Y33.967 E-0.17414
G1 X131.033 Y33.246 E-0.16648
G1 E-0.07000 F2100.00000
G1 Z0.400 F10800.000
G1 X129.101 Y29.455
G1 X129.101 Y28.455
G1 X140.740 Y28.480
G1 X144.701 Y28.849
G1 X132.542 Y183.860
G1 Z0.200
G1 E1.40000 F2100.00000
G1 F1200.000
G1 X132.542 Y176.037 E0.24528
G1 X131.787 Y176.037 E0.02365
G1 X131.787 Y183.690 E0.23995
G1 X131.033 Y183.690 E0.02365
G1 X131.033 Y176.037 E0.23995
G1 X130.279 Y176.037 E0.02365
G1 X130.279 Y183.690 E0.23995
G1 X129.525 Y183.690 E0.02365
G1 X129.525 Y176.037 E0.23995
G1 X128.771 Y176.037 E0.02365
G1 X128.771 Y183.690 E0.23995
G1 X128.017 Y183.690 E0.02365
G1 X128.017 Y176.037 E0.23995
G1 X127.262 Y176.037 E0.02365
G1 X127.262 Y185.985 E0.31191
G1 X126.508 Y185.985 E0.02365
G1 X126.508 Y176.037 E0.31190
G1 X125.754 Y176.037 E0.02365
G1 X125.754 Y185.985 E0.31190
G1 X125.664 Y185.985 E0.00283
G1 X125.664 Y188.280 E0.07195
G1 X125.000 Y188.280 E0.02082
G1 X125.000 Y176.037 E0.38386
G1 X124.246 Y176.037 E0.02365
G1 X124.246 Y188.280 E0.38386
G1 X123.492 Y188.280 E0.02365
G1 X123.492 Y176.037 E0.38385
G1 X122.738 Y176.038 E0.02365
G1 X122.738 Y188.280 E0.38385
G1 X121.983 Y188.280 E0.02365
G1 X121.983 Y176.038 E0.38385
M73 P1 R85
G1 X121.229 Y176.038 E0.02365
G1 X121.229 Y188.280 E0.38385
G1 X120.475 Y188.280 E0.02365
G1 X120.475 Y176.038 E0.38385
G1 X119.721 Y176.038 E0.02365
G1 X119.721 Y188.280 E0.38385
G1 X118.967 Y188.280 E0.02365
G1 X118.967 Y176.038 E0.38385
G1 X118.213 Y176.038 E0.02365
G1 X118.213 Y188.280 E0.38384
G1 X117.458 Y188.280 E0.02365
G1 X117.458 Y176.038 E0.38384
G1 X116.704 Y176.038 E0.02365
G1 X116.704 Y188.280 E0.38384
G1 X115.950 Y188.280 E0.02365
G1 X115.950 Y176.038 E0.38384
G1 X115.196 Y176.038 E0.02365
G1 X115.196 Y188.280 E0.38384
G1 X114.442 Y188.280 E0.02365
G1 X114.442 Y176.038 E0.38384
G1 X113.688 Y176.038 E0.02365
G1 X113.688 Y188.280 E0.38384
G1 X112.933 Y188.280 E0.02365
G1 X112.933 Y176.038 E0.38384
G1 X112.179 Y176.038 E0.02365
G1 X112.179 Y185.985 E0.31188
G1 X111.425 Y185.985 E0.02365
G1 X111.425 Y176.038 E0.31188
G1 X110.671 Y175.993 E0.02369
G1 X110.671 Y185.985 E0.31328
G1 X110.567 Y185.985 E0.00327
G1 X110.567 Y183.690 E0.07195
G1 X109.917 Y183.690 E0.02038
G1 X109.917 Y175.942 E0.24294
G1 X109.734 Y175.930 E0.00574
G1 X109.163 Y175.795 E0.01841
G1 X109.163 Y183.690 E0.24754
G1 X108.408 Y183.690 E0.02365
G1 X108.408 Y175.618 E0.25311
G1 X107.654 Y175.440 E0.02429
G1 X107.654 Y183.690 E0.25867
G1 X106.900 Y183.690 E0.02365
G1 X106.900 Y175.263 E0.26423
G1 X106.146 Y175.085 E0.02429
G1 X106.146 Y183.860 E0.27512
G1 F8640.000
G1 X106.146 Y178.100 E-1.33000
G1 E-0.07000 F2100.00000
G1 Z0.400 F10800.000
G1 X199.236 Y111.264
G1 Z0.200
G1 E1.40000 F2100.00000
G1 F1200.000
G1 X199.237 Y110.928 E0.01056
G1 X199.268 Y110.515 E0.01296
G1 X199.379 Y109.670 E0.02675
G1 X199.415 Y109.240 E0.01352
G1 X199.436 Y107.945 E0.04059
G1 X199.429 Y101.133 E0.21358
G1 X199.380 Y100.379 E0.02372
G1 X199.268 Y99.531 E0.02682
G1 X199.237 Y99.118 E0.01297
G1 X199.236 Y98.781 E0.01057
G1 X199.423 Y98.748 E0.00595
G1 X199.586 Y99.189 E0.01474
G1 X199.691 Y99.641 E0.01457
G1 X199.805 Y100.563 E0.02913
G1 X199.883 Y101.004 E0.01403
G1 X200.233 Y104.124 E0.09844
G1 X200.261 Y105.025 E0.02827
G1 X200.233 Y105.926 E0.02825
G1 X199.883 Y109.043 E0.09836
G1 X199.805 Y109.483 E0.01402
G1 X199.691 Y110.405 E0.02911
G1 X199.586 Y110.857 E0.01456
G1 X199.423 Y111.298 E0.01474
G1 X199.295 Y111.275 E0.00406
G1 X199.315 Y110.937 F10800.000
G1 F8640.000
G1 X199.237 Y110.928 E-0.08132
G1 X199.268 Y110.515 E-0.09544
G1 X199.379 Y109.670 E-0.19698
G1 X199.415 Y109.240 E-0.09958
G1 X199.436 Y107.945 E-0.29893
G1 X199.433 Y105.530 E-0.55775
G1 E-0.07000 F2100.00000
G1 Z0.400 F10800.000
G1 X199.624 Y109.288
G1 Z0.200
G1 E1.40000 F2100.00000
G1 F1200.000
G1 X199.675 Y108.656 E0.00272
G1 X199.743 Y107.537 E0.01472
G1 X199.811 Y106.307 E0.02913
G1 X199.847 Y105.025 E0.04514
G1 X199.809 Y103.720 E0.04594
G1 X199.784 Y103.288 E0.01357
G1 X199.760 Y102.856 E0.01184
G1 X199.736 Y102.424 E0.01011
G1 X199.711 Y101.991 E0.00839
G1 X199.687 Y101.559 E0.00666
G1 X199.663 Y101.127 E0.00493
G1 X199.614 Y100.700 E0.00318
G1 F8640.000
G1 X199.663 Y101.127 E-0.09929
G1 E-1.30071 F2100.00000
G1 Z0.400 F10800.000
G1 X109.983 Y31.671
G1 Z0.200
G1 E1.40000 F2100.00000
G1 F1200.000
G1 X109.325 Y31.693 E0.01385
G1 X109.134 Y31.716 E0.00335
G1 X108.942 Y31.739 E0.00274
G1 F8640.000
G1 X109.134 Y31.716 E-0.04455
G1 E-1.35545 F2100.00000
G1 Z0.400 F10800.000
G1 X109.983 Y31.671
G1 Z0.200
G1 E1.40000 F2100.00000
G1 F1200.000
G1 X111.298 Y31.627 E0.03219
G1 X138.712 Y31.626 E0.67060
G1 X141.024 Y31.671 E0.05657
G1 X141.665 Y31.738 E0.00928
;BEFORE_LAYER_CHANGE
G92 E0.0
;0.386709


G1 F8640.000
G1 X141.024 Y31.671 E-0.14868
G1 E-1.25132 F2100.00000
G1 Z0.400 F10800.000
;AFTER_LAYER_CHANGE
;0.386709
M104 S240 ; set temperature
M140 S90 ; set bed temperature
G1 X122.526 Y31.141
G1 Z0.387
G1 E1.40000 F2100.00000
G1 F900
G1 X122.526 Y29.269 E0.04795
G1 X122.031 Y29.269 E0.01267
G1 X122.031 Y31.008 E0.04455
G1 X121.536 Y31.008 E0.01267
G1 X121.536 Y29.269 E0.04455
G1 X121.041 Y29.269 E0.01267
G1 X121.041 Y31.008 E0.04455
G1 X120.546 Y31.008 E0.01267
G1 X120.546 Y29.269 E0.04455
G1 X120.051 Y29.269 E0.01267
G1 X120.051 Y31.008 E0.04455
G1 X119.556 Y31.008 E0.01267
G1 X119.556 Y29.269 E0.04455
G1 X119.061 Y29.269 E0.01267
G1 X119.061 Y31.008 E0.04455
G1 X118.566 Y31.008 E0.01267
G1 X118.566 Y29.136 E0.04795
G1 X122.838 Y24.679 F10800.000
G1 F900
G1 X115.820 Y24.679 E0.17972
G1 X115.820 Y26.974 E0.05877
G1 X113.526 Y26.974 E0.05877
G1 X125.000 Y26.974 E0.29387
G1 X125.000 Y29.269 E0.05877
G1 X129.590 Y29.269 E0.11755
G1 X123.000 Y29.269 E0.16877
G1 X123.000 Y28.974 E0.00755
G1 X117.820 Y28.974 E0.13265
G1 X117.820 Y29.269 E0.00755
G1 X108.803 Y29.269 E0.23094
G1 F8640.000
G1 X114.563 Y29.269 E-1.33000
G1 E-0.07000 F2100.00000
G1 Z0.587 F10800.000
G1 X122.526 Y180.864
G1 Z0.387
G1 E1.40000 F2100.00000
G1 F900
G1 X122.526 Y178.996 E0.04783
G1 X122.031 Y178.996 E0.01267
G1 X122.031 Y180.731 E0.04444
G1 X121.536 Y180.731 E0.01267
G1 X121.536 Y178.996 E0.04443
G1 X121.041 Y178.996 E0.01267
G1 X121.041 Y180.731 E0.04443
G1 X120.546 Y180.731 E0.01267
G1 X120.546 Y178.996 E0.04443
G1 X120.051 Y178.996 E0.01267
G1 X120.051 Y180.731 E0.04443
G1 X119.556 Y180.731 E0.01267
G1 X119.556 Y178.996 E0.04443
G1 X119.061 Y178.996 E0.01267
G1 X119.061 Y180.731 E0.04443
G1 X118.566 Y180.731 E0.01267
G1 X118.566 Y178.864 E0.04783
G1 X115.688 Y185.321 F10800.000
G1 F900
G1 X122.705 Y185.321 E0.17972
G1 X122.705 Y183.026 E0.05877
G1 X125.000 Y183.026 E0.05877
G1 X113.526 Y183.026 E0.29387
G1 X113.526 Y180.731 E0.05877
G1 X108.936 Y180.731 E0.11755
G1 X117.820 Y180.731 E0.22754
G1 X117.820 Y181.026 E0.00755
G1 X123.000 Y181.026 E0.13265
G1 X123.000 Y180.731 E0.00755
G1 X129.722 Y180.731 E0.17217
;BEFORE_LAYER_CHANGE
G92 E0.0
;0.55


G1 F8640.000
G1 X123.962 Y180.731 E-1.33000
G1 E-0.07000 F2100.00000
G1 Z0.587 F10800.000
;AFTER_LAYER_CHANGE
;0.55
G1 X112.755 Y190.650
G1 Z0.550
G1 E1.40000 F2100.00000
G1 F3000.000
G1 X111.947 Y190.443 E0.04184
G1 X55.090 Y164.409 E3.13832
G1 X53.344 Y163.476 E0.09937
G1 X52.174 Y162.615 E0.07291
G1 X51.081 Y161.562 E0.07616
G1 X49.931 Y160.181 E0.09020
G1 X48.572 Y157.893 E0.13354
G1 X47.886 Y156.286 E0.08766
G1 X47.279 Y154.153 E0.11132
G1 X47.017 Y152.442 E0.08687
G1 X46.942 Y150.418 E0.10165
G1 X46.941 Y59.241 E4.57578
G1 X47.012 Y57.226 E0.10119
G1 X47.280 Y55.462 E0.08957
G1 X47.905 Y53.278 E0.11398
G1 X48.596 Y51.676 E0.08756
G1 X49.921 Y49.448 E0.13010
G1 X51.012 Y48.124 E0.08611
G1 X52.204 Y46.973 E0.08316
G1 X53.525 Y46.019 E0.08178
G1 X55.140 Y45.178 E0.09135
G1 X112.115 Y19.488 E3.13657
G1 X112.909 Y19.343 E0.04052
G1 X125.668 Y19.343 E0.64031
G1 X126.174 Y19.398 E0.02557
G1 X126.654 Y19.559 E0.02538
G1 X159.459 Y34.798 E1.81533
G1 X164.102 Y37.239 E0.26326
G1 X168.541 Y40.031 E0.26318
G1 X172.797 Y43.181 E0.26573
G1 X176.776 Y46.624 E0.26406
G1 X178.554 Y48.426 E0.12701
G1 X181.457 Y51.685 E0.21902
G1 X184.334 Y55.275 E0.23091
G1 X186.989 Y58.983 E0.22887
G1 X189.554 Y63.005 E0.23943
G1 X191.877 Y67.150 E0.23841
