; generated by PrusaSlicer 2.2.0+win64 on 2020-03-30 at 19:15:54 UTC

; 

; external perimeters extrusion width = 0.60mm
; perimeters extrusion width = 0.43mm
; infill extrusion width = 0.45mm
; solid infill extrusion width = 0.70mm
; top infill extrusion width = 0.43mm
; first layer extrusion width = 0.42mm

M73 P0 R96
M201 X9000 Y9000 Z500 E10000 ; sets maximum accelerations, mm/sec^2
M203 X500 Y500 Z12 E120 ; sets maximum feedrates, mm/sec
M204 P2000 R1500 T2000 ; sets acceleration (P, T) and retract acceleration (R), mm/sec^2
M205 X10.00 Y10.00 Z0.20 E4.50 ; sets the jerk limits, mm/sec
M205 S0 T0 ; sets the minimum extruding and travel feed rate, mm/sec
M107
M862.3 P "MK2.5" ; printer model check
M862.1 P0.4 ; nozzle diameter check
M115 U3.8.1 ; tell printer latest fw version
G90 ; use absolute coordinates
M83 ; extruder relative mode
M104 S215 ; set extruder temp
M140 S60 ; set bed temp
M190 S60 ; wait for bed temp
M109 S215 ; wait for extruder temp
G28 W ; home all without mesh bed level
G80 ; mesh bed leveling
G1 Y-3.0 F1000.0 ; go outside print area
G92 E0.0
G1 X60.0 E9.0 F1000.0 ; intro line
M73 P0 R96
G1 X100.0 E12.5 F1000.0 ; intro line
G92 E0.0
G21 ; set units to millimeters
G90 ; use absolute coordinates
M83 ; use relative distances for extrusion
M900 K30 ; Filament gcode
;BEFORE_LAYER_CHANGE
G92 E0.0
;0.2


G1 E-0.80000 F2100.00000
G1 Z0.600 F10800.000
;AFTER_LAYER_CHANGE
;0.2
G1 X56.323 Y27.204
G1 Z0.200
G1 E0.80000 F2100.00000
M204 S1000
G1 F1200.000
G1 X56.675 Y26.727 E0.01858
G1 X57.243 Y26.239 E0.02349
G1 X57.878 Y25.886 E0.02277
G1 X63.369 Y24.529 E0.17733
G1 X89.213 Y24.222 E0.81038
G1 X100.650 Y24.186 E0.35861
G1 X107.824 Y24.339 E0.22498
G1 X114.735 Y24.647 E0.21690
G1 X123.752 Y25.269 E0.28341
G1 X127.476 Y25.684 E0.11748
G1 X132.588 Y26.353 E0.16166
G1 X137.954 Y27.288 E0.17079
G1 X143.267 Y28.462 E0.17060
G1 X145.285 Y28.972 E0.06525
G1 X148.230 Y29.875 E0.09658
G1 X151.544 Y30.993 E0.10967
G1 X155.328 Y32.530 E0.12807
G1 X157.688 Y33.653 E0.08194
G1 X160.789 Y35.283 E0.10982
G1 X162.853 Y36.511 E0.07533
G1 X166.325 Y38.872 E0.13163
G1 X168.819 Y40.825 E0.09932
G1 X170.692 Y42.498 E0.07874
G1 X172.386 Y44.070 E0.07247
G1 X173.932 Y45.665 E0.06964
G1 X176.920 Y49.125 E0.14334
G1 X180.179 Y53.623 E0.17415
G1 X182.138 Y56.787 E0.11671
G1 X185.178 Y62.654 E0.20716
G1 X186.149 Y64.807 E0.07407
G1 X187.369 Y67.846 E0.10267
G1 X189.125 Y72.949 E0.16923
G1 X191.033 Y80.098 E0.23199
G1 X191.760 Y83.762 E0.11713
G1 X192.541 Y88.673 E0.15591
G1 X192.838 Y90.705 E0.06439
G1 X193.251 Y94.895 E0.13201
G1 X193.630 Y102.463 E0.23758
G1 X193.647 Y107.532 E0.15894
G1 X193.302 Y114.621 E0.22253
G1 X192.849 Y119.335 E0.14848
G1 X191.777 Y126.239 E0.21908
G1 X191.055 Y129.873 E0.11618
G1 X189.745 Y134.850 E0.16136
G1 X189.128 Y137.094 E0.07296
G1 X187.520 Y141.812 E0.15628
G1 X186.167 Y145.188 E0.11406
G1 X185.157 Y147.421 E0.07684
G1 X182.302 Y152.950 E0.19510
G1 X180.233 Y156.320 E0.12400
G1 X176.977 Y160.821 E0.17418
G1 X175.368 Y162.736 E0.07841
G1 X172.440 Y165.891 E0.13497
G1 X170.737 Y167.475 E0.07293
G1 X168.832 Y169.177 E0.08009
G1 X166.240 Y171.201 E0.10311
G1 X162.835 Y173.511 E0.12903
G1 X160.809 Y174.715 E0.07387
G1 X155.930 Y177.202 E0.17171
G1 X151.565 Y179.005 E0.14809
G1 X145.240 Y181.044 E0.20837
G1 X140.184 Y182.246 E0.16294
G1 X134.902 Y183.265 E0.16866
G1 X129.278 Y184.090 E0.17823
G1 X123.820 Y184.726 E0.17231
G1 X114.752 Y185.353 E0.28500
G1 X107.843 Y185.660 E0.21683
G1 X100.668 Y185.814 E0.22501
G1 X89.230 Y185.778 E0.35863
G1 X63.526 Y185.478 E0.80598
G1 X63.028 Y185.415 E0.01574
G1 X58.250 Y184.240 E0.15428
G1 X57.204 Y183.721 E0.03661
G1 X56.689 Y183.271 E0.02145
G1 X56.360 Y182.834 E0.01716
G1 X56.059 Y181.972 E0.02860
G1 X56.009 Y180.404 E0.04920
G1 X55.992 Y30.130 E4.71175
G1 X56.021 Y28.260 E0.05863
G1 X56.098 Y27.757 E0.01597
G1 X56.300 Y27.260 E0.01682
G1 F8640.000
G1 X56.675 Y26.727 E-0.15031
G1 X57.243 Y26.239 E-0.17302
G1 X57.878 Y25.886 E-0.16772
G1 X59.009 Y25.606 E-0.26896
G1 E-0.04000 F2100.00000
G1 Z0.800 F10800.000
G1 X100.416 Y177.288
G1 Z0.200
G1 E0.80000 F2100.00000
G1 F1200.000
G1 X101.106 Y177.457 E0.02226
G1 X101.015 Y178.260 E0.02534
G1 X99.982 Y178.275 E0.03239
G1 X99.829 Y177.531 E0.02380
G1 X100.361 Y177.311 E0.01805
G1 X100.534 Y176.906 F10800.000
G1 F8640.000
G1 X101.106 Y177.457 E-0.17529
G1 X101.015 Y178.260 E-0.18659
G1 X99.982 Y178.275 E-0.23850
G1 X99.842 Y177.598 E-0.15963
G1 E-0.04000 F2100.00000
G1 Z0.800 F10800.000
G1 X100.490 Y177.681
G1 X101.750 Y177.008
G1 X102.058 Y177.042
G1 X103.411 Y178.179
G1 X105.355 Y177.874
G1 X111.986 Y176.392
G1 X118.299 Y174.564
G1 X125.781 Y171.808
G1 X132.876 Y168.535
G1 X139.965 Y164.479
G1 X146.049 Y160.188
G1 X151.770 Y155.104
G1 X153.761 Y152.864
G1 X155.317 Y150.826
G1 X158.545 Y146.131
G1 X161.602 Y140.331
G1 X163.959 Y134.373
G1 X165.756 Y128.380
G1 X166.851 Y123.580
G1 X167.454 Y119.969
G1 X168.749 Y114.638
G1 X169.420 Y109.770
G1 X169.643 Y105.126
G1 X169.403 Y100.217
G1 X168.733 Y95.362
G1 X167.437 Y90.030
G1 X166.834 Y86.417
G1 X165.739 Y81.618
G1 X163.943 Y75.630
G1 X161.586 Y69.669
G1 X158.529 Y63.869
G1 X155.299 Y59.173
G1 X153.744 Y57.136
G1 X151.754 Y54.896
G1 X146.034 Y49.813
G1 X139.948 Y45.521
G1 X132.861 Y41.465
G1 X125.763 Y38.192
G1 X118.282 Y35.436
G1 X111.969 Y33.608
G1 X105.338 Y32.126
G1 X103.395 Y31.821
G1 X102.041 Y32.958
G1 X101.734 Y32.992
G1 X100.473 Y32.319
G1 X100.399 Y32.712
G1 Z0.200
G1 E0.80000 F2100.00000
G1 F1200.000
G1 X99.812 Y32.468 E0.01994
G1 X99.965 Y31.725 E0.02380
G1 X100.998 Y31.740 E0.03239
G1 X101.089 Y32.543 E0.02534
G1 X100.457 Y32.697 E0.02038
G1 X100.227 Y33.073 F10800.000
G1 F8640.000
G1 X99.812 Y32.468 E-0.15822
G1 X99.965 Y31.725 E-0.17526
G1 X100.998 Y31.740 E-0.23853
G1 X101.089 Y32.543 E-0.18659
G1 X101.083 Y32.544 E-0.00140
G1 E-0.04000 F2100.00000
G1 Z0.800 F10800.000
G1 X99.214 Y32.446
G1 X98.357 Y31.083
G1 X92.502 Y30.572
G1 X88.468 Y30.459
G1 X87.647 Y29.956
G1 X87.255 Y29.515
G1 X88.559 Y28.190
G1 X89.295 Y27.848
G1 Z0.200
G1 E0.80000 F2100.00000
G1 F1200.000
G1 X94.913 Y27.800 E0.17614
G1 X97.810 Y27.812 E0.09084
G1 X103.437 Y27.881 E0.17645
G1 X105.516 Y27.924 E0.06519
G1 X112.869 Y28.200 E0.23072
G1 X116.785 Y28.414 E0.12296
G1 X119.484 Y28.609 E0.08486
G1 X125.375 Y29.091 E0.18534
G1 X126.574 Y29.223 E0.03781
G1 X133.197 Y30.116 E0.20954
G1 X135.020 Y30.414 E0.05791
G1 X140.513 Y31.548 E0.17588
G1 X142.838 Y32.096 E0.07489
G1 X144.525 Y32.537 E0.05465
G1 X145.750 Y32.897 E0.04006
G1 X148.266 Y33.696 E0.08276
G1 X149.814 Y34.237 E0.05140
G1 X151.183 Y34.748 E0.04584
G1 X152.652 Y35.353 E0.04980
G1 X156.221 Y36.970 E0.12286
G1 X157.074 Y37.391 E0.02982
G1 X158.319 Y38.061 E0.04434
G1 X159.285 Y38.615 E0.03491
G1 X161.283 Y39.827 E0.07328
G1 X162.601 Y40.693 E0.04943
G1 X163.740 Y41.503 E0.04382
G1 X165.969 Y43.190 E0.08765
G1 X167.253 Y44.262 E0.05246
G1 X168.832 Y45.706 E0.06707
G1 X170.886 Y47.711 E0.09001
G1 X171.558 Y48.441 E0.03109
G1 X173.921 Y51.180 E0.11345
G1 X174.902 Y52.431 E0.04984
G1 X175.545 Y53.292 E0.03368
G1 X176.102 Y54.096 E0.03067
G1 X178.453 Y57.682 E0.13444
G1 X179.299 Y59.100 E0.05179
G1 X179.907 Y60.214 E0.03979
G1 X181.534 Y63.438 E0.11324
G1 X182.526 Y65.515 E0.07216
G1 X182.894 Y66.382 E0.02952
G1 X184.472 Y70.393 E0.13516
G1 X185.719 Y74.164 E0.12454
G1 X186.295 Y76.115 E0.06376
G1 X187.177 Y79.449 E0.10813
G1 X187.379 Y80.292 E0.02720
G1 X187.846 Y82.431 E0.06865
G1 X188.246 Y84.493 E0.06585
G1 X188.602 Y86.634 E0.06806
G1 X189.115 Y89.989 E0.10640
G1 X189.402 Y92.408 E0.07640
G1 X189.610 Y94.821 E0.07594
G1 X189.919 Y99.068 E0.13349
G1 X190.025 Y102.277 E0.10069
G1 X190.043 Y104.967 E0.08433
G1 X190.061 Y105.354 E0.01217
G1 X190.047 Y107.316 E0.06150
G1 X189.935 Y110.932 E0.11343
G1 X189.813 Y112.768 E0.05770
G1 X189.550 Y116.143 E0.10616
G1 X189.419 Y117.592 E0.04560
G1 X189.199 Y119.530 E0.06116
G1 X188.463 Y124.322 E0.15202
G1 X188.137 Y126.206 E0.05994
G1 X187.767 Y128.023 E0.05813
G1 X187.194 Y130.550 E0.08127
G1 X186.312 Y133.885 E0.10816
G1 X185.735 Y135.836 E0.06376
G1 X184.488 Y139.607 E0.12455
G1 X182.720 Y144.085 E0.15095
G1 X181.550 Y146.561 E0.08587
G1 X179.923 Y149.785 E0.11323
G1 X179.316 Y150.900 E0.03980
G1 X178.469 Y152.318 E0.05178
G1 X176.391 Y155.502 E0.11923
G1 X175.561 Y156.708 E0.04588
G1 X174.679 Y157.884 E0.04610
G1 X173.937 Y158.820 E0.03744
G1 X171.575 Y161.559 E0.11342
G1 X170.903 Y162.289 E0.03109
G1 X168.848 Y164.295 E0.09004
G1 X166.917 Y166.044 E0.08169
G1 X165.985 Y166.810 E0.03783
G1 X164.505 Y167.946 E0.05849
G1 X162.618 Y169.306 E0.07295
G1 X161.300 Y170.173 E0.04945
G1 X160.104 Y170.906 E0.04400
G1 X158.336 Y171.938 E0.06418
G1 X157.090 Y172.610 E0.04439
G1 X155.789 Y173.240 E0.04534
G1 X153.531 Y174.265 E0.07773
G1 X151.891 Y174.976 E0.05605
G1 X150.743 Y175.426 E0.03867
G1 X148.284 Y176.304 E0.08187
G1 X145.767 Y177.103 E0.08278
G1 X144.542 Y177.463 E0.04005
G1 X142.855 Y177.904 E0.05465
G1 X140.530 Y178.452 E0.07490
G1 X135.037 Y179.586 E0.17586
G1 X134.124 Y179.740 E0.02905
G1 X131.402 Y180.137 E0.08624
G1 X126.590 Y180.777 E0.15220
G1 X125.391 Y180.909 E0.03781
G1 X117.944 Y181.509 E0.23426
G1 X114.354 Y181.728 E0.11276
G1 X111.906 Y181.839 E0.07684
G1 X104.701 Y182.096 E0.22606
G1 X95.900 Y182.202 E0.27595
G1 X89.312 Y182.152 E0.20658
G1 X89.205 Y181.473 E0.02155
G1 X89.161 Y180.639 E0.02619
G1 X98.953 Y180.621 E0.30704
G1 X105.284 Y180.522 E0.19853
G1 X114.688 Y180.163 E0.29506
G1 X120.515 Y179.778 E0.18311
G1 X125.466 Y179.318 E0.15589
G1 X127.672 Y179.052 E0.06966
G1 X132.738 Y178.363 E0.16031
G1 X134.838 Y178.007 E0.06680
G1 X137.945 Y177.434 E0.09906
G1 X139.280 Y177.140 E0.04286
G1 X143.371 Y176.121 E0.13218
G1 X144.917 Y175.704 E0.05021
G1 X146.400 Y175.269 E0.04846
G1 X151.251 Y173.545 E0.16144
G1 X152.409 Y173.054 E0.03943
G1 X154.319 Y172.215 E0.06540
G1 X155.353 Y171.701 E0.03621
G1 X156.411 Y171.295 E0.03554
G1 X160.579 Y169.007 E0.14908
G1 X164.585 Y166.101 E0.15518
G1 X166.604 Y164.245 E0.08599
G1 X167.219 Y163.709 E0.02557
G1 X168.391 Y162.602 E0.05052
G1 X168.705 Y162.245 E0.01494
G1 X171.173 Y159.724 E0.11060
G1 X173.082 Y157.438 E0.09339
G1 X175.195 Y154.457 E0.11456
G1 X176.124 Y153.199 E0.04903
G1 X176.406 Y152.770 E0.01610
G1 X177.789 Y150.488 E0.08367
G1 X179.224 Y147.875 E0.09346
G1 X179.824 Y146.633 E0.04326
G1 X181.692 Y142.576 E0.14005
G1 X182.126 Y141.538 E0.03527
G1 X183.619 Y137.473 E0.13578
G1 X183.898 Y136.648 E0.02731
G1 X184.783 Y133.756 E0.09483
G1 X185.875 Y129.550 E0.13626
G1 X186.839 Y124.879 E0.14952
G1 X187.598 Y120.054 E0.15314
G1 X187.794 Y118.040 E0.06345
G1 X187.953 Y116.788 E0.03957
G1 X188.148 Y114.776 E0.06340
G1 X188.201 Y114.020 E0.02375
G1 X188.391 Y112.325 E0.05347
G1 X188.435 Y111.130 E0.03749
G1 X188.393 Y111.104 E0.00156
G1 X188.549 Y106.479 E0.14510
G1 X188.608 Y106.442 E0.00219
G1 X188.648 Y105.378 E0.03341
G1 X188.610 Y105.378 E0.00119
G1 X188.636 Y104.709 E0.02096
G1 X188.592 Y103.558 E0.03614
G1 X188.533 Y103.521 E0.00219
G1 X188.377 Y98.894 E0.14514
G1 X188.419 Y98.868 E0.00157
G1 X188.375 Y97.675 E0.03744
G1 X188.185 Y95.980 E0.05347
G1 X188.132 Y95.224 E0.02375
G1 X187.937 Y93.212 E0.06340
G1 X187.778 Y91.960 E0.03957
G1 X187.581 Y89.946 E0.06345
G1 X186.822 Y85.121 E0.15315
G1 X185.858 Y80.450 E0.14952
G1 X184.767 Y76.244 E0.13625
G1 X183.882 Y73.352 E0.09483
G1 X183.603 Y72.527 E0.02731
G1 X182.110 Y68.462 E0.13578
G1 X181.676 Y67.424 E0.03527
G1 X179.808 Y63.367 E0.14005
G1 X179.207 Y62.125 E0.04326
G1 X177.773 Y59.511 E0.09346
G1 X176.390 Y57.230 E0.08365
G1 X176.107 Y56.801 E0.01612
G1 X175.179 Y55.543 E0.04903
G1 X173.066 Y52.562 E0.11455
G1 X171.157 Y50.276 E0.09339
G1 X168.689 Y47.755 E0.11061
G1 X168.374 Y47.398 E0.01495
G1 X167.203 Y46.291 E0.05052
G1 X166.588 Y45.755 E0.02556
G1 X164.569 Y43.899 E0.08598
M73 P1 R95
G1 X160.563 Y40.993 E0.15518
G1 X156.394 Y38.705 E0.14910
G1 X155.336 Y38.299 E0.03554
G1 X154.302 Y37.785 E0.03619
G1 X151.234 Y36.455 E0.10484
G1 X146.383 Y34.731 E0.16142
G1 X144.004 Y34.044 E0.07765
G1 X139.263 Y32.860 E0.15321
G1 X137.928 Y32.566 E0.04286
G1 X134.822 Y31.993 E0.09905
G1 X132.721 Y31.637 E0.06681
G1 X127.655 Y30.948 E0.16031
G1 X125.449 Y30.682 E0.06966
G1 X120.498 Y30.222 E0.15589
G1 X114.671 Y29.837 E0.18311
G1 X105.267 Y29.478 E0.29506
G1 X98.936 Y29.379 E0.19853
G1 X89.144 Y29.361 E0.30704
G1 X89.188 Y28.527 E0.02619
G1 X89.286 Y27.907 E0.01966
G1 X89.306 Y27.448 F10800.000
G1 F8640.000
G1 X92.577 Y27.844 E-0.76000
G1 E-0.04000 F2100.00000
G1 Z0.800 F10800.000
G1 X88.559 Y28.190
G1 X87.255 Y29.515
G1 X87.647 Y29.956
G1 X88.468 Y30.459
G1 X92.502 Y30.572
G1 X98.357 Y31.083
G1 X98.926 Y30.684
G1 X99.494 Y30.553
G1 X102.002 Y30.559
G1 Z0.200
G1 E0.80000 F2100.00000
G1 F1200.000
G1 X105.237 Y30.609 E0.10143
G1 X114.612 Y30.967 E0.29417
G1 X120.409 Y31.350 E0.18214
G1 X125.329 Y31.806 E0.15493
G1 X127.511 Y32.070 E0.06891
G1 X132.550 Y32.755 E0.15946
G1 X134.624 Y33.107 E0.06598
G1 X137.704 Y33.675 E0.09819
G1 X139.004 Y33.961 E0.04175
G1 X143.710 Y35.137 E0.15207
G1 X146.037 Y35.809 E0.07593
G1 X150.820 Y37.508 E0.15914
G1 X153.825 Y38.811 E0.10272
G1 X154.880 Y39.336 E0.03695
G1 X155.917 Y39.734 E0.03482
G1 X159.956 Y41.951 E0.14447
G1 X163.852 Y44.777 E0.15089
G1 X165.833 Y46.598 E0.08440
G1 X166.442 Y47.129 E0.02532
G1 X167.559 Y48.184 E0.04817
G1 X167.859 Y48.525 E0.01426
G1 X170.317 Y51.035 E0.11015
G1 X172.169 Y53.253 E0.09058
G1 X174.262 Y56.206 E0.11349
G1 X175.179 Y57.449 E0.04843
G1 X175.435 Y57.836 E0.01454
G1 X176.792 Y60.076 E0.08213
G1 X178.202 Y62.643 E0.09184
G1 X178.785 Y63.850 E0.04201
G1 X180.640 Y67.879 E0.13910
G1 X181.057 Y68.875 E0.03386
G1 X182.536 Y72.903 E0.13452
G1 X182.805 Y73.698 E0.02633
G1 X183.678 Y76.552 E0.09356
G1 X184.756 Y80.707 E0.13460
G1 X185.709 Y85.323 E0.14779
G1 X186.459 Y90.089 E0.15126
G1 X186.653 Y92.086 E0.06293
G1 X186.813 Y93.338 E0.03956
G1 X187.004 Y95.319 E0.06241
G1 X187.058 Y96.083 E0.02402
G1 X187.246 Y97.759 E0.05288
G1 X187.264 Y98.247 E0.01531
G1 X187.224 Y98.272 E0.00148
G1 X187.423 Y104.160 E0.18473
G1 X187.484 Y104.199 E0.00227
G1 X187.504 Y104.709 E0.01602
G1 X187.462 Y105.826 E0.03502
G1 X187.439 Y105.840 E0.00083
G1 X187.240 Y111.723 E0.18458
G1 X187.280 Y111.748 E0.00148
G1 X187.262 Y112.241 E0.01547
G1 X187.074 Y113.917 E0.05288
G1 X187.020 Y114.681 E0.02402
G1 X186.829 Y116.662 E0.06241
G1 X186.669 Y117.914 E0.03956
G1 X186.475 Y119.912 E0.06293
G1 X185.725 Y124.677 E0.15125
G1 X184.773 Y129.293 E0.14778
G1 X183.694 Y133.448 E0.13460
G1 X182.821 Y136.302 E0.09356
G1 X182.552 Y137.097 E0.02633
G1 X181.073 Y141.125 E0.13453
G1 X180.656 Y142.121 E0.03385
G1 X178.801 Y146.150 E0.13909
G1 X178.218 Y147.357 E0.04201
G1 X176.809 Y149.923 E0.09178
G1 X175.450 Y152.166 E0.08224
G1 X175.196 Y152.552 E0.01449
G1 X174.278 Y153.794 E0.04842
G1 X172.185 Y156.747 E0.11349
G1 X170.333 Y158.965 E0.09059
G1 X167.876 Y161.475 E0.11014
G1 X167.576 Y161.816 E0.01425
G1 X166.459 Y162.871 E0.04816
G1 X165.850 Y163.401 E0.02532
G1 X163.868 Y165.223 E0.08442
G1 X159.972 Y168.049 E0.15089
G1 X155.934 Y170.266 E0.14444
G1 X154.897 Y170.664 E0.03482
G1 X153.839 Y171.190 E0.03705
G1 X150.841 Y172.490 E0.10247
G1 X146.051 Y174.192 E0.15938
G1 X144.610 Y174.615 E0.04708
G1 X143.086 Y175.026 E0.04949
G1 X139.022 Y176.039 E0.13134
G1 X137.721 Y176.325 E0.04177
G1 X134.641 Y176.893 E0.09819
G1 X132.567 Y177.245 E0.06596
G1 X127.528 Y177.930 E0.15946
G1 X125.346 Y178.194 E0.06891
G1 X120.426 Y178.650 E0.15493
G1 X114.629 Y179.033 E0.18214
G1 X105.254 Y179.391 E0.29417
G1 X102.019 Y179.441 E0.10143
G1 X102.271 Y177.222 E0.07004
G1 X104.740 Y176.493 E0.08071
G1 X110.626 Y174.013 E0.20028
G1 X116.273 Y170.867 E0.20266
G1 X121.624 Y167.091 E0.20535
G1 X126.629 Y162.720 E0.20836
G1 X131.241 Y157.797 E0.21150
G1 X135.418 Y152.370 E0.21471
G1 X139.118 Y146.494 E0.21772
G1 X142.310 Y140.224 E0.22062
G1 X144.962 Y133.621 E0.22311
G1 X147.051 Y126.748 E0.22524
G1 X148.556 Y119.668 E0.22695
G1 X149.284 Y113.892 E0.18252
G1 X149.852 Y113.132 E0.02975
G1 X150.613 Y111.642 E0.05248
G1 X150.974 Y110.686 E0.03202
